;FLAVOR:Marlin
;TIME:829
;Filament used: 0.191173m
;Layer height: 0.12
;MINX:190.1
;MINY:195.1
;MINZ:0.12
;MAXX:209.9
;MAXY:204.9
;MAXZ:4.92
;Generated with Cura_SteamEngine 4.7.1
M140 S50
M105
M190 S50
M104 S200
M105
M109 S200
M82 ;absolute extrusion mode
M201 X500.00 Y500.00 Z100.00 E5000.00 ;Setup machine max acceleration
M203 X500.00 Y500.00 Z10.00 E50.00 ;Setup machine max feedrate
M204 P500.00 R1000.00 T500.00 ;Setup Print/Retract/Travel acceleration
M205 X8.00 Y8.00 Z0.40 E5.00 ;Setup Jerk
M220 S100 ;Reset Feedrate
M221 S100 ;Reset Flowrate

G28 ;Home

G92 E0 ;Reset Extruder
G1 Z2.0 F3000 ;Move Z Axis up
G1 X10.1 Y20 Z0.28 F5000.0 ;Move to start position
G1 X10.1 Y200.0 Z0.28 F1500.0 E15 ;Draw the first line
G1 X10.4 Y200.0 Z0.28 F5000.0 ;Move to side a little
G1 X10.4 Y20 Z0.28 F1500.0 E30 ;Draw the second line
G92 E0 ;Reset Extruder
G1 Z2.0 F3000 ;Move Z Axis up

G92 E0
G92 E0
G1 F2700 E-5
;LAYER_COUNT:41
;LAYER:0
M107
;MESH:Body1.stl
G0 F6000 X199.5 Y204.5 Z0.12
;TYPE:WALL-INNER
G1 F2700 E0
G1 F1200 X190.5 Y204.5 E0.0898
G1 X190.5 Y195.5 E0.1796
G1 X199.5 Y195.5 E0.26941
G1 X199.5 Y204.5 E0.35921
G0 F6000 X199.7 Y204.7
G1 F1200 X190.3 Y204.7 E0.453
G1 X190.3 Y195.3 E0.5468
G1 X199.7 Y195.3 E0.64059
G1 X199.7 Y204.7 E0.73438
G0 F6000 X199.9 Y204.9
;TYPE:WALL-OUTER
G1 F1200 X190.1 Y204.9 E0.83217
G1 X190.1 Y195.1 E0.92995
G1 X199.9 Y195.1 E1.02774
G1 X199.9 Y204.9 E1.12552
G0 F6000 X199.31 Y204.31
;TYPE:SKIN
G1 F1200 X190.69 Y204.31 E1.21153
G1 X190.69 Y195.69 E1.29754
G1 X199.31 Y195.69 E1.38356
G1 X199.31 Y204.31 E1.46957
G0 F6000 X199.49 Y204.31
G0 X199.418 Y195.582
G0 X199.164 Y195.51
G0 X199.164 Y195.77
G1 F1200 X199.23 Y195.836 E1.4705
G0 F6000 X199.23 Y196.118
G1 F1200 X198.881 Y195.77 E1.47541
G0 F6000 X198.598 Y195.77
G1 F1200 X199.23 Y196.401 E1.48433
G0 F6000 X199.23 Y196.684
G1 F1200 X198.315 Y195.77 E1.49723
G0 F6000 X198.033 Y195.77
G1 F1200 X199.23 Y196.967 E1.51412
G0 F6000 X199.23 Y197.25
G1 F1200 X197.75 Y195.77 E1.53501
G0 F6000 X197.467 Y195.77
G1 F1200 X199.23 Y197.533 E1.55988
G0 F6000 X199.23 Y197.815
G1 F1200 X197.184 Y195.77 E1.58875
G0 F6000 X196.901 Y195.77
G1 F1200 X199.23 Y198.098 E1.62161
G0 F6000 X199.23 Y198.381
G1 F1200 X196.618 Y195.77 E1.65846
G0 F6000 X196.335 Y195.77
G1 F1200 X199.23 Y198.664 E1.6993
G0 F6000 X199.23 Y198.947
G1 F1200 X196.053 Y195.77 E1.74413
G0 F6000 X195.77 Y195.77
G1 F1200 X199.23 Y199.23 E1.79296
G0 F6000 X199.23 Y199.513
G1 F1200 X195.487 Y195.77 E1.84577
G0 F6000 X195.204 Y195.77
G1 F1200 X199.23 Y199.795 E1.90258
G0 F6000 X199.23 Y200.078
G1 F1200 X194.921 Y195.77 E1.96338
G0 F6000 X194.638 Y195.77
G1 F1200 X199.23 Y200.361 E2.02817
G0 F6000 X199.23 Y200.644
G1 F1200 X194.356 Y195.77 E2.09694
G0 F6000 X194.073 Y195.77
G1 F1200 X199.23 Y200.927 E2.16972
G0 F6000 X199.23 Y201.21
G1 F1200 X193.79 Y195.77 E2.24648
G0 F6000 X193.507 Y195.77
G1 F1200 X199.23 Y201.492 E2.32723
G0 F6000 X199.23 Y201.775
G1 F1200 X193.224 Y195.77 E2.41197
G0 F6000 X192.941 Y195.77
G1 F1200 X199.23 Y202.058 E2.50071
G0 F6000 X199.23 Y202.341
G1 F1200 X192.659 Y195.77 E2.59344
G0 F6000 X192.376 Y195.77
G1 F1200 X199.23 Y202.624 E2.69015
G0 F6000 X199.23 Y202.907
G1 F1200 X192.093 Y195.77 E2.79086
G0 F6000 X191.81 Y195.77
G1 F1200 X199.23 Y203.189 E2.89556
G0 F6000 X199.23 Y203.472
G1 F1200 X191.527 Y195.77 E3.00425
G0 F6000 X191.244 Y195.77
G1 F1200 X199.23 Y203.755 E3.11694
G0 F6000 X199.23 Y204.038
G1 F1200 X190.961 Y195.77 E3.23361
G0 F6000 X190.77 Y195.861
G1 F1200 X199.138 Y204.229 E3.35169
G0 F6000 X198.855 Y204.229
G1 F1200 X190.77 Y196.144 E3.46578
G0 F6000 X190.77 Y196.427
G1 F1200 X198.572 Y204.229 E3.57588
G0 F6000 X198.289 Y204.229
G1 F1200 X190.77 Y196.71 E3.68198
G0 F6000 X190.77 Y196.992
G1 F1200 X198.006 Y204.229 E3.78409
G0 F6000 X197.724 Y204.229
G1 F1200 X190.77 Y197.275 E3.88222
G0 F6000 X190.77 Y197.558
G1 F1200 X197.441 Y204.229 E3.97636
G0 F6000 X197.158 Y204.229
G1 F1200 X190.77 Y197.841 E4.0665
G0 F6000 X190.77 Y198.124
G1 F1200 X196.875 Y204.229 E4.15265
G0 F6000 X196.592 Y204.229
G1 F1200 X190.77 Y198.407 E4.2348
G0 F6000 X190.77 Y198.689
G1 F1200 X196.309 Y204.229 E4.31297
G0 F6000 X196.026 Y204.229
G1 F1200 X190.77 Y198.972 E4.38714
G0 F6000 X190.77 Y199.255
G1 F1200 X195.744 Y204.229 E4.45733
G0 F6000 X195.461 Y204.229
G1 F1200 X190.77 Y199.538 E4.52353
G0 F6000 X190.77 Y199.821
G1 F1200 X195.178 Y204.229 E4.58573
G0 F6000 X194.895 Y204.229
G1 F1200 X190.77 Y200.104 E4.64394
G0 F6000 X190.77 Y200.386
G1 F1200 X194.612 Y204.229 E4.69816
G0 F6000 X194.329 Y204.229
G1 F1200 X190.77 Y200.669 E4.74839
G0 F6000 X190.77 Y200.952
G1 F1200 X194.047 Y204.229 E4.79463
G0 F6000 X193.764 Y204.229
G1 F1200 X190.77 Y201.235 E4.83688
G0 F6000 X190.77 Y201.518
G1 F1200 X193.481 Y204.229 E4.87513
G0 F6000 X193.198 Y204.229
G1 F1200 X190.77 Y201.801 E4.9094
G0 F6000 X190.77 Y202.084
G1 F1200 X192.915 Y204.229 E4.93966
G0 F6000 X192.632 Y204.229
G1 F1200 X190.77 Y202.366 E4.96595
G0 F6000 X190.77 Y202.649
G1 F1200 X192.35 Y204.229 E4.98824
G0 F6000 X192.067 Y204.229
G1 F1200 X190.77 Y202.932 E5.00654
G0 F6000 X190.77 Y203.215
G1 F1200 X191.784 Y204.229 E5.02085
G0 F6000 X191.501 Y204.229
G1 F1200 X190.77 Y203.498 E5.03117
G0 F6000 X190.77 Y203.781
G1 F1200 X191.218 Y204.229 E5.03749
G0 F6000 X190.935 Y204.229
G1 F1200 X190.77 Y204.063 E5.03982
G0 F6000 X190.41 Y204.063
;MESH:NONMESH
G0 F300 X190.41 Y204.063 Z0.24
G0 F6000 X190.582 Y204.418
G0 X199.5 Y204.5
;TIME_ELAPSED:34.785391
;LAYER:1
M106 S85
;TYPE:WALL-INNER
;MESH:Body1.stl
G1 F1725 X190.5 Y204.5 E5.12963
G1 X190.5 Y195.5 E5.21943
G1 X199.5 Y195.5 E5.30923
G1 X199.5 Y204.5 E5.39903
G0 F8625 X199.7 Y204.7
G1 F1725 X190.3 Y204.7 E5.49283
G1 X190.3 Y195.3 E5.58662
G1 X199.7 Y195.3 E5.68041
G1 X199.7 Y204.7 E5.77421
G0 F8625 X199.9 Y204.9
;TYPE:WALL-OUTER
G1 F1725 X190.1 Y204.9 E5.87199
G1 X190.1 Y195.1 E5.96978
G1 X199.9 Y195.1 E6.06756
G1 X199.9 Y204.9 E6.16535
G0 F8625 X199.31 Y204.31
;TYPE:SKIN
G1 F1725 X190.69 Y204.31 E6.25136
G1 X190.69 Y195.69 E6.33737
G1 X199.31 Y195.69 E6.42338
G1 X199.31 Y204.31 E6.50939
G0 F8625 X199.104 Y204.229
G1 F1725 X199.229 Y204.104 E6.51115
G0 F8625 X199.229 Y203.821
G1 F1725 X198.821 Y204.229 E6.51691
G0 F8625 X198.538 Y204.229
G1 F1725 X199.229 Y203.538 E6.52666
G0 F8625 X199.229 Y203.255
G1 F1725 X198.255 Y204.229 E6.54041
G0 F8625 X197.972 Y204.229
G1 F1725 X199.229 Y202.972 E6.55814
G0 F8625 X199.229 Y202.69
G1 F1725 X197.69 Y204.229 E6.57986
G0 F8625 X197.407 Y204.229
G1 F1725 X199.229 Y202.407 E6.60557
G0 F8625 X199.229 Y202.124
G1 F1725 X197.124 Y204.229 E6.63528
G0 F8625 X196.841 Y204.229
G1 F1725 X199.229 Y201.841 E6.66897
G0 F8625 X199.229 Y201.558
G1 F1725 X196.558 Y204.229 E6.70666
G0 F8625 X196.275 Y204.229
G1 F1725 X199.229 Y201.275 E6.74835
G0 F8625 X199.229 Y200.992
G1 F1725 X195.993 Y204.229 E6.79402
G0 F8625 X195.71 Y204.229
G1 F1725 X199.229 Y200.71 E6.84367
G0 F8625 X199.229 Y200.427
G1 F1725 X195.427 Y204.229 E6.89732
G0 F8625 X195.144 Y204.229
G1 F1725 X199.229 Y200.144 E6.95497
G0 F8625 X199.229 Y199.861
G1 F1725 X194.861 Y204.229 E7.01661
G0 F8625 X194.578 Y204.229
G1 F1725 X199.229 Y199.578 E7.08224
G0 F8625 X199.229 Y199.295
G1 F1725 X194.295 Y204.229 E7.15186
G0 F8625 X194.013 Y204.229
G1 F1725 X199.229 Y199.013 E7.22546
G0 F8625 X199.229 Y198.73
G1 F1725 X193.73 Y204.229 E7.30306
G0 F8625 X193.447 Y204.229
G1 F1725 X199.229 Y198.447 E7.38465
G0 F8625 X199.229 Y198.164
G1 F1725 X193.164 Y204.229 E7.47023
G0 F8625 X192.881 Y204.229
G1 F1725 X199.229 Y197.881 E7.55981
G0 F8625 X199.229 Y197.598
G1 F1725 X192.598 Y204.229 E7.65338
G0 F8625 X192.316 Y204.229
G1 F1725 X199.229 Y197.316 E7.75093
G0 F8625 X199.229 Y197.033
G1 F1725 X192.033 Y204.229 E7.85248
G0 F8625 X191.75 Y204.229
G1 F1725 X199.229 Y196.75 E7.95801
G0 F8625 X199.229 Y196.467
G1 F1725 X191.467 Y204.229 E8.06754
G0 F8625 X191.184 Y204.229
G1 F1725 X199.229 Y196.184 E8.18107
G0 F8625 X199.229 Y195.901
G1 F1725 X190.901 Y204.229 E8.29858
G0 F8625 X190.77 Y204.078
G1 F1725 X199.078 Y195.769 E8.41583
G0 F8625 X198.796 Y195.769
G1 F1725 X190.77 Y203.795 E8.52908
G0 F8625 X190.77 Y203.512
G1 F1725 X198.513 Y195.769 E8.63834
G0 F8625 X198.23 Y195.769
G1 F1725 X190.77 Y203.229 E8.74361
G0 F8625 X190.77 Y202.946
G1 F1725 X197.947 Y195.769 E8.84489
G0 F8625 X197.664 Y195.769
G1 F1725 X190.77 Y202.663 E8.94217
G0 F8625 X190.77 Y202.381
G1 F1725 X197.381 Y195.769 E9.03546
G0 F8625 X197.098 Y195.769
G1 F1725 X190.77 Y202.098 E9.12477
G0 F8625 X190.77 Y201.815
G1 F1725 X196.816 Y195.769 E9.21008
G0 F8625 X196.533 Y195.769
G1 F1725 X190.77 Y201.532 E9.2914
G0 F8625 X190.77 Y201.249
G1 F1725 X196.25 Y195.769 E9.36873
G0 F8625 X195.967 Y195.769
G1 F1725 X190.77 Y200.966 E9.44207
G0 F8625 X190.77 Y200.683
G1 F1725 X195.684 Y195.769 E9.51141
G0 F8625 X195.401 Y195.769
G1 F1725 X190.77 Y200.401 E9.57677
G0 F8625 X190.77 Y200.118
G1 F1725 X195.119 Y195.769 E9.63813
G0 F8625 X194.836 Y195.769
G1 F1725 X190.77 Y199.835 E9.69551
G0 F8625 X190.77 Y199.552
G1 F1725 X194.553 Y195.769 E9.74889
G0 F8625 X194.27 Y195.769
G1 F1725 X190.77 Y199.269 E9.79828
G0 F8625 X190.77 Y198.986
G1 F1725 X193.987 Y195.769 E9.84368
G0 F8625 X193.704 Y195.769
G1 F1725 X190.77 Y198.704 E9.88509
G0 F8625 X190.77 Y198.421
G1 F1725 X193.421 Y195.769 E9.9225
G0 F8625 X193.139 Y195.769
G1 F1725 X190.77 Y198.138 E9.95593
G0 F8625 X190.77 Y197.855
G1 F1725 X192.856 Y195.769 E9.98537
G0 F8625 X192.573 Y195.769
G1 F1725 X190.77 Y197.572 E10.01081
G0 F8625 X190.77 Y197.289
G1 F1725 X192.29 Y195.769 E10.03226
G0 F8625 X192.007 Y195.769
G1 F1725 X190.77 Y197.007 E10.04972
G0 F8625 X190.77 Y196.724
G1 F1725 X191.724 Y195.769 E10.06319
G0 F8625 X191.442 Y195.769
G1 F1725 X190.77 Y196.441 E10.07267
G0 F8625 X190.77 Y196.158
G1 F1725 X191.159 Y195.769 E10.07816
G0 F8625 X190.876 Y195.769
G1 F1725 X190.77 Y195.875 E10.07966
G0 F8625 X190.41 Y195.875
;MESH:NONMESH
G0 F300 X190.41 Y195.875 Z0.36
G0 F8625 X190.582 Y204.418
G0 X199.5 Y204.5
;TIME_ELAPSED:57.644329
;LAYER:2
M106 S170
;TYPE:WALL-INNER
;MESH:Body1.stl
G1 F2250 X190.5 Y204.5 E10.16946
G1 X190.5 Y195.5 E10.25926
G1 X199.5 Y195.5 E10.34906
G1 X199.5 Y204.5 E10.43887
G0 F11250 X199.7 Y204.7
G1 F2250 X190.3 Y204.7 E10.53266
G1 X190.3 Y195.3 E10.62645
G1 X199.7 Y195.3 E10.72025
G1 X199.7 Y204.7 E10.81404
G0 F11250 X199.9 Y204.9
;TYPE:WALL-OUTER
G1 F2250 X190.1 Y204.9 E10.91182
G1 X190.1 Y195.1 E11.00961
G1 X199.9 Y195.1 E11.10739
G1 X199.9 Y204.9 E11.20518
G0 F11250 X199.31 Y204.31
;TYPE:SKIN
G1 F2250 X190.69 Y204.31 E11.29119
G1 X190.69 Y195.69 E11.3772
G1 X199.31 Y195.69 E11.46321
G1 X199.31 Y204.31 E11.54922
G0 F11250 X199.49 Y204.31
G0 X199.418 Y195.582
G0 X199.164 Y195.51
G0 X199.164 Y195.77
G1 F2250 X199.23 Y195.836 E11.55015
G0 F11250 X199.23 Y196.118
G1 F2250 X198.881 Y195.77 E11.55507
G0 F11250 X198.598 Y195.77
G1 F2250 X199.23 Y196.401 E11.56398
G0 F11250 X199.23 Y196.684
G1 F2250 X198.315 Y195.77 E11.57689
G0 F11250 X198.033 Y195.77
G1 F2250 X199.23 Y196.967 E11.59378
G0 F11250 X199.23 Y197.25
G1 F2250 X197.75 Y195.77 E11.61466
G0 F11250 X197.467 Y195.77
G1 F2250 X199.23 Y197.533 E11.63954
G0 F11250 X199.23 Y197.815
G1 F2250 X197.184 Y195.77 E11.6684
G0 F11250 X196.901 Y195.77
G1 F2250 X199.23 Y198.098 E11.70126
G0 F11250 X199.23 Y198.381
G1 F2250 X196.618 Y195.77 E11.73811
G0 F11250 X196.335 Y195.77
G1 F2250 X199.23 Y198.664 E11.77896
G0 F11250 X199.23 Y198.947
G1 F2250 X196.053 Y195.77 E11.82379
G0 F11250 X195.77 Y195.77
G1 F2250 X199.23 Y199.23 E11.87261
G0 F11250 X199.23 Y199.513
G1 F2250 X195.487 Y195.77 E11.92543
G0 F11250 X195.204 Y195.77
G1 F2250 X199.23 Y199.795 E11.98223
G0 F11250 X199.23 Y200.078
G1 F2250 X194.921 Y195.77 E12.04303
G0 F11250 X194.638 Y195.77
G1 F2250 X199.23 Y200.361 E12.10782
G0 F11250 X199.23 Y200.644
G1 F2250 X194.356 Y195.77 E12.1766
G0 F11250 X194.073 Y195.77
G1 F2250 X199.23 Y200.927 E12.24937
G0 F11250 X199.23 Y201.21
G1 F2250 X193.79 Y195.77 E12.32614
G0 F11250 X193.507 Y195.77
G1 F2250 X199.23 Y201.492 E12.40689
G0 F11250 X199.23 Y201.775
G1 F2250 X193.224 Y195.77 E12.49163
G0 F11250 X192.941 Y195.77
G1 F2250 X199.23 Y202.058 E12.58037
G0 F11250 X199.23 Y202.341
G1 F2250 X192.659 Y195.77 E12.67309
G0 F11250 X192.376 Y195.77
G1 F2250 X199.23 Y202.624 E12.76981
G0 F11250 X199.23 Y202.907
G1 F2250 X192.093 Y195.77 E12.87052
G0 F11250 X191.81 Y195.77
G1 F2250 X199.23 Y203.189 E12.97522
G0 F11250 X199.23 Y203.472
G1 F2250 X191.527 Y195.77 E13.08391
G0 F11250 X191.244 Y195.77
G1 F2250 X199.23 Y203.755 E13.19659
G0 F11250 X199.23 Y204.038
G1 F2250 X190.961 Y195.77 E13.31327
G0 F11250 X190.77 Y195.861
G1 F2250 X199.138 Y204.229 E13.43135
G0 F11250 X198.855 Y204.229
G1 F2250 X190.77 Y196.144 E13.54544
G0 F11250 X190.77 Y196.427
G1 F2250 X198.572 Y204.229 E13.65553
G0 F11250 X198.289 Y204.229
G1 F2250 X190.77 Y196.71 E13.76163
G0 F11250 X190.77 Y196.992
G1 F2250 X198.006 Y204.229 E13.86375
G0 F11250 X197.724 Y204.229
G1 F2250 X190.77 Y197.275 E13.96188
G0 F11250 X190.77 Y197.558
G1 F2250 X197.441 Y204.229 E14.05601
G0 F11250 X197.158 Y204.229
G1 F2250 X190.77 Y197.841 E14.14615
G0 F11250 X190.77 Y198.124
G1 F2250 X196.875 Y204.229 E14.2323
G0 F11250 X196.592 Y204.229
G1 F2250 X190.77 Y198.407 E14.31446
G0 F11250 X190.77 Y198.689
G1 F2250 X196.309 Y204.229 E14.39263
G0 F11250 X196.026 Y204.229
G1 F2250 X190.77 Y198.972 E14.4668
G0 F11250 X190.77 Y199.255
G1 F2250 X195.744 Y204.229 E14.53699
G0 F11250 X195.461 Y204.229
G1 F2250 X190.77 Y199.538 E14.60318
G0 F11250 X190.77 Y199.821
G1 F2250 X195.178 Y204.229 E14.66539
G0 F11250 X194.895 Y204.229
G1 F2250 X190.77 Y200.104 E14.72359
G0 F11250 X190.77 Y200.386
G1 F2250 X194.612 Y204.229 E14.77782
G0 F11250 X194.329 Y204.229
G1 F2250 X190.77 Y200.669 E14.82804
G0 F11250 X190.77 Y200.952
G1 F2250 X194.047 Y204.229 E14.87429
G0 F11250 X193.764 Y204.229
G1 F2250 X190.77 Y201.235 E14.91653
G0 F11250 X190.77 Y201.518
G1 F2250 X193.481 Y204.229 E14.95479
G0 F11250 X193.198 Y204.229
G1 F2250 X190.77 Y201.801 E14.98905
G0 F11250 X190.77 Y202.084
G1 F2250 X192.915 Y204.229 E15.01932
G0 F11250 X192.632 Y204.229
G1 F2250 X190.77 Y202.366 E15.0456
G0 F11250 X190.77 Y202.649
G1 F2250 X192.35 Y204.229 E15.0679
G0 F11250 X192.067 Y204.229
G1 F2250 X190.77 Y202.932 E15.0862
G0 F11250 X190.77 Y203.215
G1 F2250 X191.784 Y204.229 E15.10051
G0 F11250 X191.501 Y204.229
G1 F2250 X190.77 Y203.498 E15.11082
G0 F11250 X190.77 Y203.781
G1 F2250 X191.218 Y204.229 E15.11714
G0 F11250 X190.935 Y204.229
G1 F2250 X190.77 Y204.063 E15.11948
G0 F11250 X190.41 Y204.063
;MESH:NONMESH
G0 F300 X190.41 Y204.063 Z0.48
G0 F11250 X190.582 Y204.418
G0 X199.5 Y204.5
;TIME_ELAPSED:77.652224
;LAYER:3
M106 S255
;TYPE:WALL-INNER
;MESH:Body1.stl
G1 F2250 X190.5 Y204.5 E15.20928
G1 X190.5 Y195.5 E15.29908
G1 X199.5 Y195.5 E15.38889
G1 X199.5 Y204.5 E15.47869
G0 F11250 X199.7 Y204.7
G1 F2250 X190.3 Y204.7 E15.57248
G1 X190.3 Y195.3 E15.66628
G1 X199.7 Y195.3 E15.76007
G1 X199.7 Y204.7 E15.85386
G0 F11250 X199.9 Y204.9
;TYPE:WALL-OUTER
G1 F2250 X190.1 Y204.9 E15.95165
G1 X190.1 Y195.1 E16.04943
G1 X199.9 Y195.1 E16.14722
G1 X199.9 Y204.9 E16.245
G0 F11250 X199.31 Y204.31
;TYPE:SKIN
G1 F2250 X190.69 Y204.31 E16.33101
G1 X190.69 Y195.69 E16.41702
G1 X199.31 Y195.69 E16.50304
G1 X199.31 Y204.31 E16.58905
G0 F11250 X199.104 Y204.229
G1 F2250 X199.229 Y204.104 E16.59081
G0 F11250 X199.229 Y203.821
G1 F2250 X198.821 Y204.229 E16.59657
G0 F11250 X198.538 Y204.229
G1 F2250 X199.229 Y203.538 E16.60632
G0 F11250 X199.229 Y203.255
G1 F2250 X198.255 Y204.229 E16.62006
G0 F11250 X197.972 Y204.229
G1 F2250 X199.229 Y202.972 E16.6378
G0 F11250 X199.229 Y202.69
G1 F2250 X197.69 Y204.229 E16.65952
G0 F11250 X197.407 Y204.229
G1 F2250 X199.229 Y202.407 E16.68523
G0 F11250 X199.229 Y202.124
G1 F2250 X197.124 Y204.229 E16.71493
G0 F11250 X196.841 Y204.229
G1 F2250 X199.229 Y201.841 E16.74863
G0 F11250 X199.229 Y201.558
G1 F2250 X196.558 Y204.229 E16.78632
G0 F11250 X196.275 Y204.229
G1 F2250 X199.229 Y201.275 E16.828
G0 F11250 X199.229 Y200.992
G1 F2250 X195.993 Y204.229 E16.87367
G0 F11250 X195.71 Y204.229
G1 F2250 X199.229 Y200.71 E16.92333
G0 F11250 X199.229 Y200.427
G1 F2250 X195.427 Y204.229 E16.97698
G0 F11250 X195.144 Y204.229
G1 F2250 X199.229 Y200.144 E17.03462
G0 F11250 X199.229 Y199.861
G1 F2250 X194.861 Y204.229 E17.09626
G0 F11250 X194.578 Y204.229
G1 F2250 X199.229 Y199.578 E17.16189
G0 F11250 X199.229 Y199.295
G1 F2250 X194.295 Y204.229 E17.23152
G0 F11250 X194.013 Y204.229
G1 F2250 X199.229 Y199.013 E17.30512
G0 F11250 X199.229 Y198.73
G1 F2250 X193.73 Y204.229 E17.38272
G0 F11250 X193.447 Y204.229
G1 F2250 X199.229 Y198.447 E17.46431
G0 F11250 X199.229 Y198.164
G1 F2250 X193.164 Y204.229 E17.54989
G0 F11250 X192.881 Y204.229
G1 F2250 X199.229 Y197.881 E17.63947
G0 F11250 X199.229 Y197.598
G1 F2250 X192.598 Y204.229 E17.73304
G0 F11250 X192.316 Y204.229
G1 F2250 X199.229 Y197.316 E17.83059
G0 F11250 X199.229 Y197.033
G1 F2250 X192.033 Y204.229 E17.93213
G0 F11250 X191.75 Y204.229
G1 F2250 X199.229 Y196.75 E18.03767
G0 F11250 X199.229 Y196.467
G1 F2250 X191.467 Y204.229 E18.1472
G0 F11250 X191.184 Y204.229
G1 F2250 X199.229 Y196.184 E18.26072
G0 F11250 X199.229 Y195.901
G1 F2250 X190.901 Y204.229 E18.37824
G0 F11250 X190.77 Y204.078
G1 F2250 X199.078 Y195.769 E18.49548
G0 F11250 X198.796 Y195.769
G1 F2250 X190.77 Y203.795 E18.60874
G0 F11250 X190.77 Y203.512
G1 F2250 X198.513 Y195.769 E18.718
G0 F11250 X198.23 Y195.769
G1 F2250 X190.77 Y203.229 E18.82327
G0 F11250 X190.77 Y202.946
G1 F2250 X197.947 Y195.769 E18.92454
G0 F11250 X197.664 Y195.769
G1 F2250 X190.77 Y202.663 E19.02182
G0 F11250 X190.77 Y202.381
G1 F2250 X197.381 Y195.769 E19.11512
G0 F11250 X197.098 Y195.769
G1 F2250 X190.77 Y202.098 E19.20442
G0 F11250 X190.77 Y201.815
G1 F2250 X196.816 Y195.769 E19.28974
G0 F11250 X196.533 Y195.769
G1 F2250 X190.77 Y201.532 E19.37106
G0 F11250 X190.77 Y201.249
G1 F2250 X196.25 Y195.769 E19.44839
G0 F11250 X195.967 Y195.769
G1 F2250 X190.77 Y200.966 E19.52172
G0 F11250 X190.77 Y200.683
G1 F2250 X195.684 Y195.769 E19.59107
G0 F11250 X195.401 Y195.769
G1 F2250 X190.77 Y200.401 E19.65642
G0 F11250 X190.77 Y200.118
G1 F2250 X195.119 Y195.769 E19.71779
G0 F11250 X194.836 Y195.769
G1 F2250 X190.77 Y199.835 E19.77517
G0 F11250 X190.77 Y199.552
G1 F2250 X194.553 Y195.769 E19.82855
G0 F11250 X194.27 Y195.769
G1 F2250 X190.77 Y199.269 E19.87794
G0 F11250 X190.77 Y198.986
G1 F2250 X193.987 Y195.769 E19.92333
G0 F11250 X193.704 Y195.769
G1 F2250 X190.77 Y198.704 E19.96474
G0 F11250 X190.77 Y198.421
G1 F2250 X193.421 Y195.769 E20.00216
G0 F11250 X193.139 Y195.769
G1 F2250 X190.77 Y198.138 E20.03559
G0 F11250 X190.77 Y197.855
G1 F2250 X192.856 Y195.769 E20.06502
G0 F11250 X192.573 Y195.769
G1 F2250 X190.77 Y197.572 E20.09046
G0 F11250 X190.77 Y197.289
G1 F2250 X192.29 Y195.769 E20.11191
G0 F11250 X192.007 Y195.769
G1 F2250 X190.77 Y197.007 E20.12937
G0 F11250 X190.77 Y196.724
G1 F2250 X191.724 Y195.769 E20.14284
G0 F11250 X191.442 Y195.769
G1 F2250 X190.77 Y196.441 E20.15233
G0 F11250 X190.77 Y196.158
G1 F2250 X191.159 Y195.769 E20.15782
G0 F11250 X190.876 Y195.769
G1 F2250 X190.77 Y195.875 E20.15931
G0 F11250 X190.41 Y195.875
;MESH:NONMESH
G0 F300 X190.41 Y195.875 Z0.6
G0 F11250 X190.582 Y204.418
G0 X199.5 Y204.5
;TIME_ELAPSED:97.586882
;LAYER:4
;TYPE:WALL-INNER
;MESH:Body1.stl
G1 F2250 X190.5 Y204.5 E20.24911
G1 X190.5 Y195.5 E20.33892
G1 X199.5 Y195.5 E20.42872
G1 X199.5 Y204.5 E20.51852
G0 F11250 X199.7 Y204.7
G1 F2250 X190.3 Y204.7 E20.61231
G1 X190.3 Y195.3 E20.70611
G1 X199.7 Y195.3 E20.7999
G1 X199.7 Y204.7 E20.8937
G0 F11250 X199.9 Y204.9
;TYPE:WALL-OUTER
G1 F2250 X190.1 Y204.9 E20.99148
G1 X190.1 Y195.1 E21.08926
G1 X199.9 Y195.1 E21.18705
G1 X199.9 Y204.9 E21.28483
G0 F11250 X199.31 Y204.31
;TYPE:SKIN
G1 F2250 X190.69 Y204.31 E21.37085
G1 X190.69 Y195.69 E21.45686
G1 X199.31 Y195.69 E21.54287
G1 X199.31 Y204.31 E21.62888
G0 F11250 X199.49 Y204.31
G0 X199.418 Y195.582
G0 X199.164 Y195.51
G0 X199.164 Y195.77
G1 F2250 X199.23 Y195.836 E21.62981
G0 F11250 X199.23 Y196.118
G1 F2250 X198.881 Y195.77 E21.63473
G0 F11250 X198.598 Y195.77
G1 F2250 X199.23 Y196.401 E21.64364
G0 F11250 X199.23 Y196.684
G1 F2250 X198.315 Y195.77 E21.65654
G0 F11250 X198.033 Y195.77
G1 F2250 X199.23 Y196.967 E21.67343
G0 F11250 X199.23 Y197.25
G1 F2250 X197.75 Y195.77 E21.69432
G0 F11250 X197.467 Y195.77
G1 F2250 X199.23 Y197.533 E21.7192
G0 F11250 X199.23 Y197.815
G1 F2250 X197.184 Y195.77 E21.74806
G0 F11250 X196.901 Y195.77
G1 F2250 X199.23 Y198.098 E21.78092
G0 F11250 X199.23 Y198.381
G1 F2250 X196.618 Y195.77 E21.81777
G0 F11250 X196.335 Y195.77
G1 F2250 X199.23 Y198.664 E21.85861
G0 F11250 X199.23 Y198.947
G1 F2250 X196.053 Y195.77 E21.90344
G0 F11250 X195.77 Y195.77
G1 F2250 X199.23 Y199.23 E21.95227
G0 F11250 X199.23 Y199.513
G1 F2250 X195.487 Y195.77 E22.00509
G0 F11250 X195.204 Y195.77
G1 F2250 X199.23 Y199.795 E22.06189
G0 F11250 X199.23 Y200.078
G1 F2250 X194.921 Y195.77 E22.12269
G0 F11250 X194.638 Y195.77
G1 F2250 X199.23 Y200.361 E22.18748
G0 F11250 X199.23 Y200.644
G1 F2250 X194.356 Y195.77 E22.25626
G0 F11250 X194.073 Y195.77
G1 F2250 X199.23 Y200.927 E22.32903
G0 F11250 X199.23 Y201.21
G1 F2250 X193.79 Y195.77 E22.40579
G0 F11250 X193.507 Y195.77
G1 F2250 X199.23 Y201.492 E22.48654
G0 F11250 X199.23 Y201.775
G1 F2250 X193.224 Y195.77 E22.57129
G0 F11250 X192.941 Y195.77
G1 F2250 X199.23 Y202.058 E22.66002
G0 F11250 X199.23 Y202.341
G1 F2250 X192.659 Y195.77 E22.75275
G0 F11250 X192.376 Y195.77
G1 F2250 X199.23 Y202.624 E22.84946
G0 F11250 X199.23 Y202.907
G1 F2250 X192.093 Y195.77 E22.95018
G0 F11250 X191.81 Y195.77
G1 F2250 X199.23 Y203.189 E23.05487
G0 F11250 X199.23 Y203.472
G1 F2250 X191.527 Y195.77 E23.16356
G0 F11250 X191.244 Y195.77
G1 F2250 X199.23 Y203.755 E23.27625
G0 F11250 X199.23 Y204.038
G1 F2250 X190.961 Y195.77 E23.39292
G0 F11250 X190.77 Y195.861
G1 F2250 X199.138 Y204.229 E23.51101
G0 F11250 X198.855 Y204.229
G1 F2250 X190.77 Y196.144 E23.62509
G0 F11250 X190.77 Y196.427
G1 F2250 X198.572 Y204.229 E23.73519
G0 F11250 X198.289 Y204.229
G1 F2250 X190.77 Y196.71 E23.84129
G0 F11250 X190.77 Y196.992
G1 F2250 X198.006 Y204.229 E23.9434
G0 F11250 X197.724 Y204.229
G1 F2250 X190.77 Y197.275 E24.04153
G0 F11250 X190.77 Y197.558
G1 F2250 X197.441 Y204.229 E24.13567
G0 F11250 X197.158 Y204.229
G1 F2250 X190.77 Y197.841 E24.22581
G0 F11250 X190.77 Y198.124
G1 F2250 X196.875 Y204.229 E24.31196
G0 F11250 X196.592 Y204.229
G1 F2250 X190.77 Y198.407 E24.39411
G0 F11250 X190.77 Y198.689
G1 F2250 X196.309 Y204.229 E24.47228
G0 F11250 X196.026 Y204.229
G1 F2250 X190.77 Y198.972 E24.54646
G0 F11250 X190.77 Y199.255
G1 F2250 X195.744 Y204.229 E24.61664
G0 F11250 X195.461 Y204.229
G1 F2250 X190.77 Y199.538 E24.68284
G0 F11250 X190.77 Y199.821
G1 F2250 X195.178 Y204.229 E24.74504
G0 F11250 X194.895 Y204.229
G1 F2250 X190.77 Y200.104 E24.80325
G0 F11250 X190.77 Y200.386
G1 F2250 X194.612 Y204.229 E24.85747
G0 F11250 X194.329 Y204.229
G1 F2250 X190.77 Y200.669 E24.9077
G0 F11250 X190.77 Y200.952
G1 F2250 X194.047 Y204.229 E24.95394
G0 F11250 X193.764 Y204.229
G1 F2250 X190.77 Y201.235 E24.99619
G0 F11250 X190.77 Y201.518
G1 F2250 X193.481 Y204.229 E25.03445
G0 F11250 X193.198 Y204.229
G1 F2250 X190.77 Y201.801 E25.06871
G0 F11250 X190.77 Y202.084
G1 F2250 X192.915 Y204.229 E25.09898
G0 F11250 X192.632 Y204.229
G1 F2250 X190.77 Y202.366 E25.12526
G0 F11250 X190.77 Y202.649
G1 F2250 X192.35 Y204.229 E25.14755
G0 F11250 X192.067 Y204.229
G1 F2250 X190.77 Y202.932 E25.16585
G0 F11250 X190.77 Y203.215
G1 F2250 X191.784 Y204.229 E25.18016
G0 F11250 X191.501 Y204.229
G1 F2250 X190.77 Y203.498 E25.19048
G0 F11250 X190.77 Y203.781
G1 F2250 X191.218 Y204.229 E25.1968
G0 F11250 X190.935 Y204.229
G1 F2250 X190.77 Y204.063 E25.19914
G0 F11250 X190.41 Y204.063
;MESH:NONMESH
G0 F300 X190.41 Y204.063 Z0.72
G0 F11250 X190.582 Y204.418
G0 X199.5 Y204.5
;TIME_ELAPSED:117.594776
;LAYER:5
;TYPE:WALL-INNER
;MESH:Body1.stl
G1 F2250 X190.5 Y204.5 E25.28894
G1 X190.5 Y195.5 E25.37874
G1 X199.5 Y195.5 E25.46854
G1 X199.5 Y204.5 E25.55835
G0 F11250 X199.7 Y204.7
G1 F2250 X190.3 Y204.7 E25.65214
G1 X190.3 Y195.3 E25.74593
G1 X199.7 Y195.3 E25.83973
G1 X199.7 Y204.7 E25.93352
G0 F11250 X199.9 Y204.9
;TYPE:WALL-OUTER
G1 F2250 X190.1 Y204.9 E26.0313
G1 X190.1 Y195.1 E26.12909
G1 X199.9 Y195.1 E26.22687
G1 X199.9 Y204.9 E26.32466
G0 F11250 X199.31 Y204.31
;TYPE:SKIN
G1 F2250 X190.69 Y204.31 E26.41067
G1 X190.69 Y195.69 E26.49668
G1 X199.31 Y195.69 E26.58269
G1 X199.31 Y204.31 E26.6687
G0 F11250 X199.104 Y204.229
G1 F2250 X199.229 Y204.104 E26.67047
G0 F11250 X199.229 Y203.821
G1 F2250 X198.821 Y204.229 E26.67622
G0 F11250 X198.538 Y204.229
G1 F2250 X199.229 Y203.538 E26.68597
G0 F11250 X199.229 Y203.255
G1 F2250 X198.255 Y204.229 E26.69972
G0 F11250 X197.972 Y204.229
G1 F2250 X199.229 Y202.972 E26.71746
G0 F11250 X199.229 Y202.69
G1 F2250 X197.69 Y204.229 E26.73917
G0 F11250 X197.407 Y204.229
G1 F2250 X199.229 Y202.407 E26.76488
G0 F11250 X199.229 Y202.124
G1 F2250 X197.124 Y204.229 E26.79459
G0 F11250 X196.841 Y204.229
G1 F2250 X199.229 Y201.841 E26.82828
G0 F11250 X199.229 Y201.558
G1 F2250 X196.558 Y204.229 E26.86597
G0 F11250 X196.275 Y204.229
G1 F2250 X199.229 Y201.275 E26.90766
G0 F11250 X199.229 Y200.992
G1 F2250 X195.993 Y204.229 E26.95333
G0 F11250 X195.71 Y204.229
G1 F2250 X199.229 Y200.71 E27.00299
G0 F11250 X199.229 Y200.427
G1 F2250 X195.427 Y204.229 E27.05664
G0 F11250 X195.144 Y204.229
G1 F2250 X199.229 Y200.144 E27.11428
G0 F11250 X199.229 Y199.861
G1 F2250 X194.861 Y204.229 E27.17592
G0 F11250 X194.578 Y204.229
G1 F2250 X199.229 Y199.578 E27.24155
G0 F11250 X199.229 Y199.295
G1 F2250 X194.295 Y204.229 E27.31117
G0 F11250 X194.013 Y204.229
G1 F2250 X199.229 Y199.013 E27.38478
G0 F11250 X199.229 Y198.73
G1 F2250 X193.73 Y204.229 E27.46237
G0 F11250 X193.447 Y204.229
G1 F2250 X199.229 Y198.447 E27.54396
G0 F11250 X199.229 Y198.164
G1 F2250 X193.164 Y204.229 E27.62955
G0 F11250 X192.881 Y204.229
G1 F2250 X199.229 Y197.881 E27.71912
G0 F11250 X199.229 Y197.598
G1 F2250 X192.598 Y204.229 E27.81269
G0 F11250 X192.316 Y204.229
G1 F2250 X199.229 Y197.316 E27.91024
G0 F11250 X199.229 Y197.033
G1 F2250 X192.033 Y204.229 E28.01179
G0 F11250 X191.75 Y204.229
G1 F2250 X199.229 Y196.75 E28.11732
G0 F11250 X199.229 Y196.467
G1 F2250 X191.467 Y204.229 E28.22685
G0 F11250 X191.184 Y204.229
G1 F2250 X199.229 Y196.184 E28.34038
G0 F11250 X199.229 Y195.901
G1 F2250 X190.901 Y204.229 E28.45789
G0 F11250 X190.77 Y204.078
G1 F2250 X199.078 Y195.769 E28.57514
G0 F11250 X198.796 Y195.769
G1 F2250 X190.77 Y203.795 E28.68839
G0 F11250 X190.77 Y203.512
G1 F2250 X198.513 Y195.769 E28.79765
G0 F11250 X198.23 Y195.769
G1 F2250 X190.77 Y203.229 E28.90292
G0 F11250 X190.77 Y202.946
G1 F2250 X197.947 Y195.769 E29.0042
G0 F11250 X197.664 Y195.769
G1 F2250 X190.77 Y202.663 E29.10148
G0 F11250 X190.77 Y202.381
G1 F2250 X197.381 Y195.769 E29.19478
G0 F11250 X197.098 Y195.769
G1 F2250 X190.77 Y202.098 E29.28408
G0 F11250 X190.77 Y201.815
G1 F2250 X196.816 Y195.769 E29.36939
G0 F11250 X196.533 Y195.769
G1 F2250 X190.77 Y201.532 E29.45072
G0 F11250 X190.77 Y201.249
G1 F2250 X196.25 Y195.769 E29.52804
G0 F11250 X195.967 Y195.769
G1 F2250 X190.77 Y200.966 E29.60138
G0 F11250 X190.77 Y200.683
G1 F2250 X195.684 Y195.769 E29.67072
G0 F11250 X195.401 Y195.769
G1 F2250 X190.77 Y200.401 E29.73608
G0 F11250 X190.77 Y200.118
G1 F2250 X195.119 Y195.769 E29.79745
G0 F11250 X194.836 Y195.769
G1 F2250 X190.77 Y199.835 E29.85482
G0 F11250 X190.77 Y199.552
G1 F2250 X194.553 Y195.769 E29.9082
G0 F11250 X194.27 Y195.769
G1 F2250 X190.77 Y199.269 E29.95759
G0 F11250 X190.77 Y198.986
G1 F2250 X193.987 Y195.769 E30.00299
G0 F11250 X193.704 Y195.769
G1 F2250 X190.77 Y198.704 E30.0444
G0 F11250 X190.77 Y198.421
G1 F2250 X193.421 Y195.769 E30.08181
G0 F11250 X193.139 Y195.769
G1 F2250 X190.77 Y198.138 E30.11524
G0 F11250 X190.77 Y197.855
G1 F2250 X192.856 Y195.769 E30.14468
G0 F11250 X192.573 Y195.769
G1 F2250 X190.77 Y197.572 E30.17012
G0 F11250 X190.77 Y197.289
G1 F2250 X192.29 Y195.769 E30.19157
G0 F11250 X192.007 Y195.769
G1 F2250 X190.77 Y197.007 E30.20903
G0 F11250 X190.77 Y196.724
G1 F2250 X191.724 Y195.769 E30.2225
G0 F11250 X191.442 Y195.769
G1 F2250 X190.77 Y196.441 E30.23198
G0 F11250 X190.77 Y196.158
G1 F2250 X191.159 Y195.769 E30.23747
G0 F11250 X190.876 Y195.769
G1 F2250 X190.77 Y195.875 E30.23897
G0 F11250 X190.41 Y195.875
;MESH:NONMESH
G0 F300 X190.41 Y195.875 Z0.84
G0 F11250 X190.582 Y204.418
G0 X199.5 Y204.5
;TIME_ELAPSED:137.529434
;LAYER:6
;TYPE:WALL-INNER
;MESH:Body1.stl
G1 F2250 X190.5 Y204.5 E30.32877
G1 X190.5 Y195.5 E30.41857
G1 X199.5 Y195.5 E30.50837
G1 X199.5 Y204.5 E30.59818
G0 F11250 X199.7 Y204.7
G1 F2250 X190.3 Y204.7 E30.69197
G1 X190.3 Y195.3 E30.78576
G1 X199.7 Y195.3 E30.87956
G1 X199.7 Y204.7 E30.97335
G0 F11250 X199.9 Y204.9
;TYPE:WALL-OUTER
G1 F2250 X190.1 Y204.9 E31.07114
G1 X190.1 Y195.1 E31.16892
G1 X199.9 Y195.1 E31.26671
G1 X199.9 Y204.9 E31.36449
G0 F11250 X199.31 Y204.31
;TYPE:SKIN
G1 F2250 X190.69 Y204.31 E31.4505
G1 X190.69 Y195.69 E31.53651
G1 X199.31 Y195.69 E31.62252
G1 X199.31 Y204.31 E31.70853
G0 F11250 X199.49 Y204.31
G0 X199.418 Y195.582
G0 X199.164 Y195.51
G0 X199.164 Y195.77
G1 F2250 X199.23 Y195.836 E31.70946
G0 F11250 X199.23 Y196.118
G1 F2250 X198.881 Y195.77 E31.71438
G0 F11250 X198.598 Y195.77
G1 F2250 X199.23 Y196.401 E31.72329
G0 F11250 X199.23 Y196.684
G1 F2250 X198.315 Y195.77 E31.7362
G0 F11250 X198.033 Y195.77
G1 F2250 X199.23 Y196.967 E31.75309
G0 F11250 X199.23 Y197.25
G1 F2250 X197.75 Y195.77 E31.77397
G0 F11250 X197.467 Y195.77
G1 F2250 X199.23 Y197.533 E31.79885
G0 F11250 X199.23 Y197.815
G1 F2250 X197.184 Y195.77 E31.82772
G0 F11250 X196.901 Y195.77
G1 F2250 X199.23 Y198.098 E31.86057
G0 F11250 X199.23 Y198.381
G1 F2250 X196.618 Y195.77 E31.89742
G0 F11250 X196.335 Y195.77
G1 F2250 X199.23 Y198.664 E31.93827
G0 F11250 X199.23 Y198.947
G1 F2250 X196.053 Y195.77 E31.9831
G0 F11250 X195.77 Y195.77
G1 F2250 X199.23 Y199.23 E32.03192
G0 F11250 X199.23 Y199.513
G1 F2250 X195.487 Y195.77 E32.08474
G0 F11250 X195.204 Y195.77
G1 F2250 X199.23 Y199.795 E32.14155
G0 F11250 X199.23 Y200.078
G1 F2250 X194.921 Y195.77 E32.20234
G0 F11250 X194.638 Y195.77
G1 F2250 X199.23 Y200.361 E32.26713
G0 F11250 X199.23 Y200.644
G1 F2250 X194.356 Y195.77 E32.33591
G0 F11250 X194.073 Y195.77
G1 F2250 X199.23 Y200.927 E32.40868
G0 F11250 X199.23 Y201.21
G1 F2250 X193.79 Y195.77 E32.48545
G0 F11250 X193.507 Y195.77
G1 F2250 X199.23 Y201.492 E32.5662
G0 F11250 X199.23 Y201.775
G1 F2250 X193.224 Y195.77 E32.65094
G0 F11250 X192.941 Y195.77
G1 F2250 X199.23 Y202.058 E32.73968
G0 F11250 X199.23 Y202.341
G1 F2250 X192.659 Y195.77 E32.8324
G0 F11250 X192.376 Y195.77
G1 F2250 X199.23 Y202.624 E32.92912
G0 F11250 X199.23 Y202.907
G1 F2250 X192.093 Y195.77 E33.02983
G0 F11250 X191.81 Y195.77
G1 F2250 X199.23 Y203.189 E33.13453
G0 F11250 X199.23 Y203.472
G1 F2250 X191.527 Y195.77 E33.24322
G0 F11250 X191.244 Y195.77
G1 F2250 X199.23 Y203.755 E33.3559
G0 F11250 X199.23 Y204.038
G1 F2250 X190.961 Y195.77 E33.47258
G0 F11250 X190.77 Y195.861
G1 F2250 X199.138 Y204.229 E33.59066
G0 F11250 X198.855 Y204.229
G1 F2250 X190.77 Y196.144 E33.70475
G0 F11250 X190.77 Y196.427
G1 F2250 X198.572 Y204.229 E33.81484
G0 F11250 X198.289 Y204.229
G1 F2250 X190.77 Y196.71 E33.92095
G0 F11250 X190.77 Y196.992
G1 F2250 X198.006 Y204.229 E34.02306
G0 F11250 X197.724 Y204.229
G1 F2250 X190.77 Y197.275 E34.12119
G0 F11250 X190.77 Y197.558
G1 F2250 X197.441 Y204.229 E34.21532
G0 F11250 X197.158 Y204.229
G1 F2250 X190.77 Y197.841 E34.30547
G0 F11250 X190.77 Y198.124
G1 F2250 X196.875 Y204.229 E34.39161
G0 F11250 X196.592 Y204.229
G1 F2250 X190.77 Y198.407 E34.47377
G0 F11250 X190.77 Y198.689
G1 F2250 X196.309 Y204.229 E34.55194
G0 F11250 X196.026 Y204.229
G1 F2250 X190.77 Y198.972 E34.62611
G0 F11250 X190.77 Y199.255
G1 F2250 X195.744 Y204.229 E34.6963
G0 F11250 X195.461 Y204.229
G1 F2250 X190.77 Y199.538 E34.7625
G0 F11250 X190.77 Y199.821
G1 F2250 X195.178 Y204.229 E34.8247
G0 F11250 X194.895 Y204.229
G1 F2250 X190.77 Y200.104 E34.88291
G0 F11250 X190.77 Y200.386
G1 F2250 X194.612 Y204.229 E34.93713
G0 F11250 X194.329 Y204.229
G1 F2250 X190.77 Y200.669 E34.98736
G0 F11250 X190.77 Y200.952
G1 F2250 X194.047 Y204.229 E35.0336
G0 F11250 X193.764 Y204.229
G1 F2250 X190.77 Y201.235 E35.07585
G0 F11250 X190.77 Y201.518
G1 F2250 X193.481 Y204.229 E35.1141
G0 F11250 X193.198 Y204.229
G1 F2250 X190.77 Y201.801 E35.14836
G0 F11250 X190.77 Y202.084
G1 F2250 X192.915 Y204.229 E35.17863
G0 F11250 X192.632 Y204.229
G1 F2250 X190.77 Y202.366 E35.20491
G0 F11250 X190.77 Y202.649
G1 F2250 X192.35 Y204.229 E35.22721
G0 F11250 X192.067 Y204.229
G1 F2250 X190.77 Y202.932 E35.24551
G0 F11250 X190.77 Y203.215
G1 F2250 X191.784 Y204.229 E35.25982
G0 F11250 X191.501 Y204.229
G1 F2250 X190.77 Y203.498 E35.27013
G0 F11250 X190.77 Y203.781
G1 F2250 X191.218 Y204.229 E35.27646
G0 F11250 X190.935 Y204.229
G1 F2250 X190.77 Y204.063 E35.27879
G0 F11250 X190.41 Y204.063
;MESH:NONMESH
G0 F300 X190.41 Y204.063 Z0.96
G0 F11250 X190.582 Y204.418
G0 X199.5 Y204.5
;TIME_ELAPSED:157.537329
;LAYER:7
;TYPE:WALL-INNER
;MESH:Body1.stl
G1 F869.4 X190.5 Y204.5 E35.36859
G1 X190.5 Y195.5 E35.4584
G1 X199.5 Y195.5 E35.5482
G1 X199.5 Y204.5 E35.638
G0 F11250 X199.7 Y204.7
G1 F869.4 X190.3 Y204.7 E35.73179
G1 X190.3 Y195.3 E35.82559
G1 X199.7 Y195.3 E35.91938
G1 X199.7 Y204.7 E36.01318
G0 F11250 X199.9 Y204.9
;TYPE:WALL-OUTER
G1 F869.4 X190.1 Y204.9 E36.11096
G1 X190.1 Y195.1 E36.20874
G1 X199.9 Y195.1 E36.30653
G1 X199.9 Y204.9 E36.40431
G0 F11250 X199.459 Y204.157
;TYPE:FILL
G1 F1738.9 X190.841 Y195.539 E36.52592
G0 F11250 X192.21 Y195.538
G1 F1738.9 X190.539 Y201.773 E36.59033
G0 F11250 X190.539 Y200.894
G1 F1738.9 X194.104 Y204.459 E36.64064
G0 F11250 X193.961 Y204.459
G1 F1738.9 X196.351 Y195.539 E36.73278
G0 F11250 X196.499 Y195.54
G1 F1738.9 X199.459 Y198.501 E36.77456
G0 F11250 X199.459 Y199.393
G1 F1738.9 X198.101 Y204.46 E36.8269
G0 F11250 X199.459 Y200.845
G1 F1738.9 X190.539 Y203.235 E36.91904
G0 F11250 X190.539 Y199.094
G1 F1738.9 X199.459 Y196.704 E37.01119
;MESH:NONMESH
G0 F300 X199.459 Y196.704 Z1.08
G0 F11250 X199.5 Y204.5
;TIME_ELAPSED:168.850731
;LAYER:8
;TYPE:WALL-INNER
;MESH:Body1.stl
G1 F868.2 X190.5 Y204.5 E37.10099
G1 X190.5 Y195.5 E37.19079
G1 X199.5 Y195.5 E37.2806
G1 X199.5 Y204.5 E37.3704
G0 F11250 X199.7 Y204.7
G1 F868.2 X190.3 Y204.7 E37.46419
G1 X190.3 Y195.3 E37.55798
G1 X199.7 Y195.3 E37.65178
G1 X199.7 Y204.7 E37.74557
G0 F11250 X199.9 Y204.9
;TYPE:WALL-OUTER
G1 F868.2 X190.1 Y204.9 E37.84336
G1 X190.1 Y195.1 E37.94114
G1 X199.9 Y195.1 E38.03893
G1 X199.9 Y204.9 E38.13671
G0 F11250 X199.459 Y204.037
;TYPE:FILL
G1 F1736.5 X190.961 Y195.539 E38.25663
G0 F11250 X192.122 Y195.538
G1 F1736.5 X190.539 Y201.445 E38.31765
G0 F11250 X190.539 Y200.774
G1 F1736.5 X194.224 Y204.459 E38.36965
G0 F11250 X193.872 Y204.459
G1 F1736.5 X196.263 Y195.539 E38.46179
G0 F11250 X196.619 Y195.54
G1 F1736.5 X199.459 Y198.38 E38.50187
G0 F11250 X199.459 Y199.064
G1 F1736.5 X198.014 Y204.459 E38.5576
G0 F11250 X199.458 Y200.933
G1 F1736.5 X190.539 Y203.323 E38.64973
G0 F11250 X190.539 Y199.182
G1 F1736.5 X199.459 Y196.792 E38.74187
;MESH:NONMESH
G0 F300 X199.459 Y196.792 Z1.2
G0 F11250 X199.5 Y204.5
;TIME_ELAPSED:180.177451
;LAYER:9
;TYPE:WALL-INNER
;MESH:Body1.stl
G1 F867.6 X190.5 Y204.5 E38.83168
G1 X190.5 Y195.5 E38.92148
G1 X199.5 Y195.5 E39.01128
G1 X199.5 Y204.5 E39.10108
G0 F11250 X199.7 Y204.7
G1 F867.6 X190.3 Y204.7 E39.19488
G1 X190.3 Y195.3 E39.28867
G1 X199.7 Y195.3 E39.38246
G1 X199.7 Y204.7 E39.47626
G0 F11250 X199.9 Y204.9
;TYPE:WALL-OUTER
G1 F867.6 X190.1 Y204.9 E39.57404
G1 X190.1 Y195.1 E39.67183
G1 X199.9 Y195.1 E39.76961
G1 X199.9 Y204.9 E39.8674
G0 F11250 X199.73 Y204.73
G0 X199.459 Y203.917
;TYPE:FILL
G1 F1735.2 X191.082 Y195.539 E39.98561
G0 F11250 X192.034 Y195.538
G1 F1735.2 X190.539 Y201.117 E40.04324
G0 F11250 X190.539 Y200.654
G1 F1735.2 X194.344 Y204.459 E40.09694
G0 F11250 X193.784 Y204.46
G1 F1735.2 X196.175 Y195.538 E40.1891
G0 F11250 X196.739 Y195.54
G1 F1735.2 X199.459 Y198.26 E40.22748
G0 F11250 X199.459 Y198.736
G1 F1735.2 X197.926 Y204.459 E40.2866
G0 F11250 X199.458 Y201.021
G1 F1735.2 X190.54 Y203.411 E40.37873
G0 F11250 X190.54 Y199.27
G1 F1735.2 X199.458 Y196.88 E40.47085
;MESH:NONMESH
G0 F300 X199.458 Y196.88 Z1.32
G0 F11250 X199.5 Y204.5
;TIME_ELAPSED:191.501282
;LAYER:10
;TYPE:WALL-INNER
;MESH:Body1.stl
G1 F867 X190.5 Y204.5 E40.56065
G1 X190.5 Y195.5 E40.65046
G1 X199.5 Y195.5 E40.74026
G1 X199.5 Y204.5 E40.83006
G0 F11250 X199.7 Y204.7
G1 F867 X190.3 Y204.7 E40.92385
G1 X190.3 Y195.3 E41.01765
G1 X199.7 Y195.3 E41.11144
G1 X199.7 Y204.7 E41.20523
G0 F11250 X199.9 Y204.9
;TYPE:WALL-OUTER
G1 F867 X190.1 Y204.9 E41.30302
G1 X190.1 Y195.1 E41.4008
G1 X199.9 Y195.1 E41.49859
G1 X199.9 Y204.9 E41.59637
G0 F11250 X199.73 Y204.73
G0 X199.459 Y203.797
;TYPE:FILL
G1 F1734 X191.202 Y195.539 E41.7129
G0 F11250 X191.946 Y195.539
G1 F1734 X190.539 Y200.788 E41.76712
G0 F11250 X190.539 Y200.534
G1 F1734 X194.464 Y204.459 E41.82251
G0 F11250 X193.697 Y204.459
G1 F1734 X196.087 Y195.538 E41.91466
G0 F11250 X196.859 Y195.54
G1 F1734 X199.459 Y198.14 E41.95135
G0 F11250 X199.459 Y198.407
G1 F1734 X197.838 Y204.46 E42.01387
G0 F11250 X199.459 Y201.109
G1 F1734 X190.54 Y203.499 E42.10601
G0 F11250 X190.54 Y199.358
G1 F1734 X199.459 Y196.968 E42.19814
;MESH:NONMESH
G0 F300 X199.459 Y196.968 Z1.44
G0 F11250 X199.5 Y204.5
;TIME_ELAPSED:202.812186
;LAYER:11
;TYPE:WALL-INNER
;MESH:Body1.stl
G1 F866.4 X190.5 Y204.5 E42.28794
G1 X190.5 Y195.5 E42.37775
G1 X199.5 Y195.5 E42.46755
G1 X199.5 Y204.5 E42.55735
G0 F11250 X199.7 Y204.7
G1 F866.4 X190.3 Y204.7 E42.65114
G1 X190.3 Y195.3 E42.74494
G1 X199.7 Y195.3 E42.83873
G1 X199.7 Y204.7 E42.93252
G0 F11250 X199.9 Y204.9
;TYPE:WALL-OUTER
G1 F866.4 X190.1 Y204.9 E43.03031
G1 X190.1 Y195.1 E43.12809
G1 X199.9 Y195.1 E43.22588
G1 X199.9 Y204.9 E43.32366
G0 F11250 X199.73 Y204.73
G0 X199.459 Y203.677
;TYPE:FILL
G1 F1732.8 X191.322 Y195.539 E43.43849
G0 F11250 X191.858 Y195.538
G1 F1732.8 X190.539 Y200.459 E43.48933
G0 F11250 X190.539 Y200.413
G1 F1732.8 X194.585 Y204.459 E43.54642
G0 F11250 X193.609 Y204.459
G1 F1732.8 X195.999 Y195.539 E43.63857
G0 F11250 X196.98 Y195.54
G1 F1732.8 X199.459 Y198.02 E43.67355
G0 F11250 X199.459 Y198.079
G1 F1732.8 X197.749 Y204.46 E43.73947
G0 F11250 X199.459 Y201.197
G1 F1732.8 X190.539 Y203.587 E43.83161
G0 F11250 X190.54 Y199.446
G1 F1732.8 X199.459 Y197.056 E43.92375
;MESH:NONMESH
G0 F300 X199.459 Y197.056 Z1.56
G0 F11250 X199.5 Y204.5
;TIME_ELAPSED:214.102529
;LAYER:12
;TYPE:WALL-INNER
;MESH:Body1.stl
G1 F866.1 X190.5 Y204.5 E44.01355
G1 X190.5 Y195.5 E44.10335
G1 X199.5 Y195.5 E44.19315
G1 X199.5 Y204.5 E44.28296
G0 F11250 X199.7 Y204.7
G1 F866.1 X190.3 Y204.7 E44.37675
G1 X190.3 Y195.3 E44.47054
G1 X199.7 Y195.3 E44.56434
G1 X199.7 Y204.7 E44.65813
G0 F11250 X199.9 Y204.9
;TYPE:WALL-OUTER
G1 F866.1 X190.1 Y204.9 E44.75592
G1 X190.1 Y195.1 E44.8537
G1 X199.9 Y195.1 E44.95149
G1 X199.9 Y204.9 E45.04927
G0 F11250 X199.73 Y204.73
G0 X199.459 Y203.556
;TYPE:FILL
G1 F1732.1 X191.442 Y195.539 E45.1624
G0 F11250 X191.77 Y195.538
G1 F1732.1 X190.539 Y200.131 E45.20985
G0 F11250 X190.539 Y200.293
G1 F1732.1 X194.705 Y204.459 E45.26863
G0 F11250 X193.52 Y204.459
G1 F1732.1 X195.911 Y195.539 E45.36078
G0 F11250 X197.1 Y195.54
G1 F1732.1 X199.459 Y197.9 E45.39407
G0 F11250 X199.459 Y197.751
G1 F1732.1 X197.661 Y204.46 E45.46338
G0 F11250 X199.459 Y201.285
G1 F1732.1 X190.539 Y203.675 E45.55552
G0 F11250 X190.539 Y199.534
G1 F1732.1 X199.459 Y197.144 E45.64767
;MESH:NONMESH
G0 F300 X199.459 Y197.144 Z1.68
G0 F11250 X199.5 Y204.5
;TIME_ELAPSED:225.410354
;LAYER:13
;TYPE:WALL-INNER
;MESH:Body1.stl
G1 F866.1 X190.5 Y204.5 E45.73747
G1 X190.5 Y195.5 E45.82727
G1 X199.5 Y195.5 E45.91707
G1 X199.5 Y204.5 E46.00688
G0 F11250 X199.7 Y204.7
G1 F866.1 X190.3 Y204.7 E46.10067
G1 X190.3 Y195.3 E46.19446
G1 X199.7 Y195.3 E46.28826
G1 X199.7 Y204.7 E46.38205
G0 F11250 X199.9 Y204.9
;TYPE:WALL-OUTER
G1 F866.1 X190.1 Y204.9 E46.47983
G1 X190.1 Y195.1 E46.57762
G1 X199.9 Y195.1 E46.6754
G1 X199.9 Y204.9 E46.77319
G0 F11250 X199.73 Y204.73
G0 X199.459 Y203.438
;TYPE:FILL
G1 F1732.1 X191.561 Y195.539 E46.88465
G0 F11250 X191.683 Y195.539
G1 F1732.1 X190.539 Y199.807 E46.92873
G0 F11250 X190.54 Y199.621
G1 F1732.1 X199.459 Y197.231 E47.02087
G0 F11250 X199.459 Y197.426
G1 F1732.1 X197.575 Y204.459 E47.09352
G0 F11250 X194.824 Y204.459
G1 F1732.1 X190.539 Y200.174 E47.15398
G0 F11250 X190.54 Y203.762
G1 F1732.1 X199.459 Y201.372 E47.24612
G0 F11250 X199.459 Y197.781
G1 F1732.1 X197.219 Y195.54 E47.27773
G0 F11250 X195.824 Y195.538
G1 F1732.1 X193.433 Y204.46 E47.3699
;MESH:NONMESH
G0 F300 X193.433 Y204.46 Z1.8
G0 F11250 X199.5 Y204.5
;TIME_ELAPSED:236.720448
;LAYER:14
;TYPE:WALL-INNER
;MESH:Body1.stl
G1 F869.9 X190.5 Y204.5 E47.4597
G1 X190.5 Y195.5 E47.5495
G1 X199.5 Y195.5 E47.63931
G1 X199.5 Y204.5 E47.72911
G0 F11250 X199.7 Y204.7
G1 F869.9 X190.3 Y204.7 E47.8229
G1 X190.3 Y195.3 E47.9167
G1 X199.7 Y195.3 E48.01049
G1 X199.7 Y204.7 E48.10428
G0 F11250 X199.9 Y204.9
;TYPE:WALL-OUTER
G1 F869.9 X190.1 Y204.9 E48.20207
G1 X190.1 Y195.1 E48.29985
G1 X199.9 Y195.1 E48.39764
G1 X199.9 Y204.9 E48.49542
G0 F11250 X199.73 Y204.73
G0 X199.459 Y203.317
;TYPE:FILL
G1 F1739.8 X191.681 Y195.539 E48.60518
G0 F11250 X191.595 Y195.538
G1 F1739.8 X190.539 Y199.479 E48.64589
G0 F11250 X190.54 Y199.709
G1 F1739.8 X199.459 Y197.319 E48.73802
G0 F11250 X199.459 Y197.097
G1 F1739.8 X197.487 Y204.46 E48.81408
G0 F11250 X194.944 Y204.459
G1 F1739.8 X190.539 Y200.054 E48.87624
G0 F11250 X190.539 Y203.85
G1 F1739.8 X199.459 Y201.46 E48.96838
G0 F11250 X199.459 Y197.661
G1 F1739.8 X197.339 Y195.54 E48.99831
G0 F11250 X195.736 Y195.539
G1 F1739.8 X193.346 Y204.459 E49.09045
G0 F11250 X190.648 Y195.539
G1 F1739.8 X190.54 Y195.568 E49.09157
;MESH:NONMESH
G0 F300 X190.54 Y195.568 Z1.92
G0 F11250 X199.5 Y204.5
;TIME_ELAPSED:248.359571
;LAYER:15
;TYPE:WALL-INNER
;MESH:Body1.stl
G1 F873.2 X190.5 Y204.5 E49.18137
G1 X190.5 Y195.5 E49.27117
G1 X199.5 Y195.5 E49.36097
G1 X199.5 Y204.5 E49.45078
G0 F11250 X199.7 Y204.7
G1 F873.2 X190.3 Y204.7 E49.54457
G1 X190.3 Y195.3 E49.63836
G1 X199.7 Y195.3 E49.73216
G1 X199.7 Y204.7 E49.82595
G0 F11250 X199.9 Y204.9
;TYPE:WALL-OUTER
G1 F873.2 X190.1 Y204.9 E49.92373
G1 X190.1 Y195.1 E50.02152
G1 X199.9 Y195.1 E50.1193
G1 X199.9 Y204.9 E50.21709
G0 F11250 X199.73 Y204.73
G0 X199.459 Y203.197
;TYPE:FILL
G1 F1746.5 X191.802 Y195.539 E50.32514
G0 F11250 X191.507 Y195.538
G1 F1746.5 X190.539 Y199.15 E50.36246
G0 F11250 X190.539 Y199.797
G1 F1746.5 X199.459 Y197.407 E50.4546
G0 F11250 X199.459 Y197.54
G1 F1746.5 X197.459 Y195.54 E50.48282
G0 F11250 X195.648 Y195.539
G1 F1746.5 X193.258 Y204.459 E50.57497
G0 F11250 X195.064 Y204.459
G1 F1746.5 X190.539 Y199.934 E50.63882
G0 F11250 X190.539 Y203.938
G1 F1746.5 X199.459 Y201.548 E50.73096
G0 F11250 X197.398 Y204.46
G1 F1746.5 X199.459 Y196.769 E50.81041
G0 F11250 X190.976 Y195.539
G1 F1746.5 X190.54 Y195.656 E50.81492
;MESH:NONMESH
G0 F300 X190.54 Y195.656 Z2.04
G0 F11250 X199.5 Y204.5
;TIME_ELAPSED:260.002831
;LAYER:16
;TYPE:WALL-INNER
;MESH:Body1.stl
G1 F874.1 X190.5 Y204.5 E50.90472
G1 X190.5 Y195.5 E50.99452
G1 X199.5 Y195.5 E51.08432
G1 X199.5 Y204.5 E51.17412
G0 F11250 X199.7 Y204.7
G1 F874.1 X190.3 Y204.7 E51.26792
G1 X190.3 Y195.3 E51.36171
G1 X199.7 Y195.3 E51.45551
G1 X199.7 Y204.7 E51.5493
G0 F11250 X199.9 Y204.9
;TYPE:WALL-OUTER
G1 F874.1 X190.1 Y204.9 E51.64708
G1 X190.1 Y195.1 E51.74487
G1 X199.9 Y195.1 E51.84265
G1 X199.9 Y204.9 E51.94044
G0 F11250 X199.73 Y204.73
G0 X199.459 Y203.077
;TYPE:FILL
G1 F1748.2 X191.922 Y195.539 E52.0468
G0 F11250 X191.419 Y195.538
G1 F1748.2 X190.539 Y198.821 E52.08071
G0 F11250 X190.539 Y199.814
G1 F1748.2 X195.184 Y204.459 E52.14626
G0 F11250 X193.169 Y204.459
G1 F1748.2 X195.56 Y195.538 E52.23842
G0 F11250 X197.579 Y195.54
G1 F1748.2 X199.459 Y197.42 E52.26495
G0 F11250 X199.459 Y197.495
G1 F1748.2 X190.539 Y199.885 E52.35709
G0 F11250 X190.539 Y195.744
G1 F1748.2 X191.304 Y195.539 E52.36499
G0 F11250 X199.459 Y196.44
G1 F1748.2 X197.311 Y204.459 E52.44783
G0 F11250 X199.458 Y201.636
G1 F1748.2 X190.54 Y204.026 E52.53995
;MESH:NONMESH
G0 F300 X190.54 Y204.026 Z2.16
G0 F11250 X199.5 Y204.5
;TIME_ELAPSED:271.636164
;LAYER:17
;TYPE:WALL-INNER
;MESH:Body1.stl
G1 F869.7 X190.5 Y204.5 E52.62975
G1 X190.5 Y195.5 E52.71956
G1 X199.5 Y195.5 E52.80936
G1 X199.5 Y204.5 E52.89916
G0 F11250 X199.7 Y204.7
G1 F869.7 X190.3 Y204.7 E52.99295
G1 X190.3 Y195.3 E53.08675
G1 X199.7 Y195.3 E53.18054
G1 X199.7 Y204.7 E53.27433
G0 F11250 X199.9 Y204.9
;TYPE:WALL-OUTER
G1 F869.7 X190.1 Y204.9 E53.37212
G1 X190.1 Y195.1 E53.4699
G1 X199.9 Y195.1 E53.56769
G1 X199.9 Y204.9 E53.66547
G0 F11250 X199.73 Y204.73
G0 X199.459 Y202.957
;TYPE:FILL
G1 F1739.3 X192.042 Y195.539 E53.77014
G0 F11250 X191.634 Y195.539
G1 F1739.3 X190.54 Y195.832 E53.78144
G0 F11250 X191.331 Y195.538
G1 F1739.3 X190.539 Y198.493 E53.81197
G0 F11250 X190.539 Y199.694
G1 F1739.3 X195.305 Y204.459 E53.87922
G0 F11250 X197.223 Y204.459
G1 F1739.3 X199.459 Y196.112 E53.96544
G0 F11250 X199.459 Y197.3
G1 F1739.3 X197.699 Y195.54 E53.99027
G0 F11250 X195.472 Y195.538
G1 F1739.3 X193.081 Y204.46 E54.08244
G0 F11250 X190.54 Y204.114
G1 F1739.3 X199.459 Y201.724 E54.17457
G0 F11250 X199.458 Y197.583
G1 F1739.3 X190.54 Y199.973 E54.2667
;MESH:NONMESH
G0 F300 X190.54 Y199.973 Z2.28
G0 F11250 X199.5 Y204.5
;TIME_ELAPSED:283.215141
;LAYER:18
;TYPE:WALL-INNER
;MESH:Body1.stl
G1 F870.8 X190.5 Y204.5 E54.3565
G1 X190.5 Y195.5 E54.4463
G1 X199.5 Y195.5 E54.5361
G1 X199.5 Y204.5 E54.62591
G0 F11250 X199.7 Y204.7
G1 F870.8 X190.3 Y204.7 E54.7197
G1 X190.3 Y195.3 E54.81349
G1 X199.7 Y195.3 E54.90729
G1 X199.7 Y204.7 E55.00108
G0 F11250 X199.9 Y204.9
;TYPE:WALL-OUTER
G1 F870.8 X190.1 Y204.9 E55.09887
G1 X190.1 Y195.1 E55.19665
G1 X199.9 Y195.1 E55.29444
G1 X199.9 Y204.9 E55.39222
G0 F11250 X199.73 Y204.73
G0 X199.459 Y202.837
;TYPE:FILL
G1 F1741.5 X192.162 Y195.539 E55.4952
G0 F11250 X191.962 Y195.539
G1 F1741.5 X190.54 Y195.92 E55.50989
G0 F11250 X191.243 Y195.538
G1 F1741.5 X190.539 Y198.165 E55.53702
G0 F11250 X190.539 Y199.573
G1 F1741.5 X195.425 Y204.459 E55.60597
G0 F11250 X197.135 Y204.46
G1 F1741.5 X199.459 Y195.784 E55.69559
G0 F11250 X199.459 Y197.18
G1 F1741.5 X197.82 Y195.54 E55.71873
G0 F11250 X195.384 Y195.539
G1 F1741.5 X192.994 Y204.459 E55.81087
G0 F11250 X190.54 Y204.202
G1 F1741.5 X199.459 Y201.812 E55.903
G0 F11250 X199.459 Y197.671
G1 F1741.5 X190.54 Y200.061 E55.99514
;MESH:NONMESH
G0 F300 X190.54 Y200.061 Z2.4
G0 F11250 X199.5 Y204.5
;TIME_ELAPSED:294.788730
;LAYER:19
;TYPE:WALL-INNER
;MESH:Body1.stl
G1 F872.3 X190.5 Y204.5 E56.08494
G1 X190.5 Y195.5 E56.17474
G1 X199.5 Y195.5 E56.26454
G1 X199.5 Y204.5 E56.35435
G0 F11250 X199.7 Y204.7
G1 F872.3 X190.3 Y204.7 E56.44814
G1 X190.3 Y195.3 E56.54193
G1 X199.7 Y195.3 E56.63573
G1 X199.7 Y204.7 E56.72952
G0 F11250 X199.9 Y204.9
;TYPE:WALL-OUTER
G1 F872.3 X190.1 Y204.9 E56.82731
G1 X190.1 Y195.1 E56.92509
G1 X199.9 Y195.1 E57.02288
G1 X199.9 Y204.9 E57.12066
G0 F11250 X199.73 Y204.73
G0 X199.459 Y202.716
;TYPE:FILL
G1 F1744.7 X192.282 Y195.539 E57.22194
G0 F11250 X192.29 Y195.539
G1 F1744.7 X190.54 Y196.008 E57.24001
G0 F11250 X191.155 Y195.538
G1 F1744.7 X190.539 Y197.837 E57.26376
G0 F11250 X190.539 Y199.453
G1 F1744.7 X195.545 Y204.459 E57.3344
G0 F11250 X197.046 Y204.46
G1 F1744.7 X199.437 Y195.539 E57.42656
G0 F11250 X197.94 Y195.54
G1 F1744.7 X199.459 Y197.06 E57.448
G0 F11250 X199.459 Y197.759
G1 F1744.7 X190.54 Y200.149 E57.54013
G0 F11250 X190.539 Y204.29
G1 F1744.7 X199.459 Y201.9 E57.63228
G0 F11250 X192.906 Y204.459
G1 F1744.7 X195.296 Y195.539 E57.72442
;MESH:NONMESH
G0 F300 X195.296 Y195.539 Z2.52
G0 F11250 X199.5 Y204.5
;TIME_ELAPSED:306.380574
;LAYER:20
;TYPE:WALL-INNER
;MESH:Body1.stl
G1 F871.9 X190.5 Y204.5 E57.81422
G1 X190.5 Y195.5 E57.90403
G1 X199.5 Y195.5 E57.99383
G1 X199.5 Y204.5 E58.08363
G0 F11250 X199.7 Y204.7
G1 F871.9 X190.3 Y204.7 E58.17742
G1 X190.3 Y195.3 E58.27122
G1 X199.7 Y195.3 E58.36501
G1 X199.7 Y204.7 E58.4588
G0 F11250 X199.9 Y204.9
;TYPE:WALL-OUTER
G1 F871.9 X190.1 Y204.9 E58.55659
G1 X190.1 Y195.1 E58.65437
G1 X199.9 Y195.1 E58.75216
G1 X199.9 Y204.9 E58.84994
G0 F11250 X199.73 Y204.73
G0 X199.459 Y202.598
;TYPE:FILL
G1 F1743.9 X192.401 Y195.539 E58.94955
G0 F11250 X192.614 Y195.539
G1 F1743.9 X190.54 Y196.095 E58.97097
G0 F11250 X191.068 Y195.538
G1 F1743.9 X190.539 Y197.512 E58.99136
G0 F11250 X190.539 Y199.334
G1 F1743.9 X195.664 Y204.459 E59.06368
G0 F11250 X196.96 Y204.459
G1 F1743.9 X199.35 Y195.539 E59.15583
G0 F11250 X198.059 Y195.54
G1 F1743.9 X199.459 Y196.941 E59.17559
G0 F11250 X199.458 Y197.846
G1 F1743.9 X190.54 Y200.236 E59.26771
G0 F11250 X190.54 Y204.377
G1 F1743.9 X199.458 Y201.987 E59.35984
G0 F11250 X192.818 Y204.46
G1 F1743.9 X195.209 Y195.538 E59.452
;MESH:NONMESH
G0 F300 X195.209 Y195.538 Z2.64
G0 F11250 X199.5 Y204.5
;TIME_ELAPSED:317.991758
;LAYER:21
;TYPE:WALL-INNER
;MESH:Body1.stl
G1 F871.6 X190.5 Y204.5 E59.54181
G1 X190.5 Y195.5 E59.63161
G1 X199.5 Y195.5 E59.72141
G1 X199.5 Y204.5 E59.81121
G0 F11250 X199.7 Y204.7
G1 F871.6 X190.3 Y204.7 E59.90501
G1 X190.3 Y195.3 E59.9988
G1 X199.7 Y195.3 E60.09259
G1 X199.7 Y204.7 E60.18639
G0 F11250 X199.9 Y204.9
;TYPE:WALL-OUTER
G1 F871.6 X190.1 Y204.9 E60.28417
G1 X190.1 Y195.1 E60.38196
G1 X199.9 Y195.1 E60.47974
G1 X199.9 Y204.9 E60.57753
G0 F11250 X199.73 Y204.73
G0 X199.459 Y202.477
;TYPE:FILL
G1 F1743.1 X192.521 Y195.539 E60.67543
G0 F11250 X192.942 Y195.539
G1 F1743.1 X190.54 Y196.183 E60.70024
G0 F11250 X190.98 Y195.538
G1 F1743.1 X190.539 Y197.184 E60.71725
G0 F11250 X190.539 Y199.214
G1 F1743.1 X195.784 Y204.459 E60.79126
G0 F11250 X196.872 Y204.46
G1 F1743.1 X199.262 Y195.539 E60.88341
G0 F11250 X198.179 Y195.54
G1 F1743.1 X199.459 Y196.821 E60.90148
G0 F11250 X199.459 Y197.934
G1 F1743.1 X190.54 Y200.324 E60.99361
G0 F11250 X190.562 Y204.459
G1 F1743.1 X199.459 Y202.075 E61.08552
G0 F11250 X192.731 Y204.459
G1 F1743.1 X195.121 Y195.538 E61.17767
;MESH:NONMESH
G0 F300 X195.121 Y195.538 Z2.76
G0 F11250 X199.5 Y204.5
;TIME_ELAPSED:329.619439
;LAYER:22
;TYPE:WALL-INNER
;MESH:Body1.stl
G1 F870.7 X190.5 Y204.5 E61.26748
G1 X190.5 Y195.5 E61.35728
G1 X199.5 Y195.5 E61.44708
G1 X199.5 Y204.5 E61.53688
G0 F11250 X199.7 Y204.7
G1 F870.7 X190.3 Y204.7 E61.63068
G1 X190.3 Y195.3 E61.72447
G1 X199.7 Y195.3 E61.81826
G1 X199.7 Y204.7 E61.91206
G0 F11250 X199.9 Y204.9
;TYPE:WALL-OUTER
G1 F870.7 X190.1 Y204.9 E62.00984
G1 X190.1 Y195.1 E62.10763
G1 X199.9 Y195.1 E62.20541
G1 X199.9 Y204.9 E62.3032
G0 F11250 X199.73 Y204.73
G0 X199.459 Y202.357
;TYPE:FILL
G1 F1741.4 X192.642 Y195.539 E62.3994
G0 F11250 X193.271 Y195.539
G1 F1741.4 X190.54 Y196.271 E62.42761
G0 F11250 X190.539 Y196.855
G1 F1741.4 X190.892 Y195.538 E62.44122
G0 F11250 X190.539 Y199.094
G1 F1741.4 X195.904 Y204.459 E62.51692
G0 F11250 X196.784 Y204.46
G1 F1741.4 X199.174 Y195.538 E62.60909
G0 F11250 X198.299 Y195.54
G1 F1741.4 X199.459 Y196.7 E62.62545
G0 F11250 X199.459 Y198.022
G1 F1741.4 X190.54 Y200.412 E62.71759
G0 F11250 X190.89 Y204.459
G1 F1741.4 X199.459 Y202.163 E62.80611
G0 F11250 X192.643 Y204.459
G1 F1741.4 X195.033 Y195.539 E62.89825
;MESH:NONMESH
G0 F300 X195.033 Y195.539 Z2.88
G0 F11250 X199.5 Y204.5
;TIME_ELAPSED:341.280159
;LAYER:23
;TYPE:WALL-INNER
;MESH:Body1.stl
G1 F865.9 X190.5 Y204.5 E62.98805
G1 X190.5 Y195.5 E63.07785
G1 X199.5 Y195.5 E63.16766
G1 X199.5 Y204.5 E63.25746
G0 F11250 X199.7 Y204.7
G1 F865.9 X190.3 Y204.7 E63.35125
G1 X190.3 Y195.3 E63.44505
G1 X199.7 Y195.3 E63.53884
G1 X199.7 Y204.7 E63.63263
G0 F11250 X199.9 Y204.9
;TYPE:WALL-OUTER
G1 F865.9 X190.1 Y204.9 E63.73042
G1 X190.1 Y195.1 E63.8282
G1 X199.9 Y195.1 E63.92599
G1 X199.9 Y204.9 E64.02377
G0 F11250 X199.73 Y204.73
G0 X199.459 Y202.251
;TYPE:FILL
G1 F1731.8 X191.218 Y204.459 E64.1089
G0 F11250 X192.555 Y204.459
G1 F1731.8 X194.945 Y195.539 E64.20105
G0 F11250 X193.6 Y195.539
G1 F1731.8 X190.54 Y196.359 E64.23266
G0 F11250 X190.539 Y196.527
G1 F1731.8 X190.804 Y195.538 E64.24287
G0 F11250 X192.762 Y195.539
G1 F1731.8 X199.459 Y202.237 E64.33738
G0 F11250 X196.696 Y204.459
G1 F1731.8 X199.086 Y195.539 E64.42952
G0 F11250 X198.419 Y195.54
G1 F1731.8 X199.459 Y196.58 E64.4442
G0 F11250 X199.459 Y198.11
G1 F1731.8 X190.539 Y200.5 E64.53634
G0 F11250 X190.539 Y198.974
G1 F1731.8 X196.024 Y204.459 E64.61374
G1 F2700 E59.61374
;MESH:NONMESH
G0 F300 X196.024 Y204.459 Z3
G0 F11250 X199.78 Y204.5
G0 X200.665 Y204.5
G0 X209.5 Y204.5
;TIME_ELAPSED:353.038015
;LAYER:24
;TYPE:WALL-INNER
;MESH:Body1.stl
G1 F2700 E64.61374
G1 F2250 X190.5 Y204.5 E64.80333
G1 X190.5 Y195.5 E64.89313
G1 X209.5 Y195.5 E65.08271
G1 X209.5 Y204.5 E65.17251
G0 F11250 X209.7 Y204.7
G1 F2250 X190.3 Y204.7 E65.36609
G1 X190.3 Y195.3 E65.45988
G1 X209.7 Y195.3 E65.65345
G1 X209.7 Y204.7 E65.74725
G0 F11250 X209.9 Y204.9
;TYPE:WALL-OUTER
G1 F2250 X190.1 Y204.9 E65.94481
G1 X190.1 Y195.1 E66.0426
G1 X209.9 Y195.1 E66.24016
G1 X209.9 Y204.9 E66.33795
G0 F11250 X209.73 Y204.73
G0 X199.372 Y204.418
G0 X199.3 Y202.339
G0 X199.458 Y202.339
;TYPE:FILL
G1 F4500 X191.546 Y204.459 E66.41968
G0 F11250 X192.467 Y204.459
G1 F4500 X194.857 Y195.538 E66.51183
G0 F11250 X193.928 Y195.539
G1 F4500 X190.539 Y196.447 E66.54684
G0 F11250 X190.539 Y196.199
G1 F4500 X190.716 Y195.538 E66.55367
G0 F11250 X192.882 Y195.539
G1 F4500 X199.459 Y202.117 E66.64648
G0 F11250 X199.3 Y202.117
G0 X196.608 Y204.459
G1 F4500 X198.998 Y195.539 E66.73863
G0 F11250 X198.54 Y195.54
G1 F4500 X199.459 Y196.46 E66.7516
G0 F11250 X199.3 Y196.46
G0 X199.3 Y198.198
G0 X199.458 Y198.198
G1 F4500 X190.54 Y200.588 E66.84373
G0 F11250 X190.539 Y198.853
G1 F4500 X196.145 Y204.459 E66.92283
G0 F11250 X199.49 Y204.49
G0 X199.49 Y204.31
;TYPE:SKIN
G1 F2250 X199.49 Y195.69 E67.00884
G1 X209.31 Y195.69 E67.10683
G1 X209.31 Y204.31 E67.19284
G1 X199.49 Y204.31 E67.29082
G0 F11250 X199.703 Y204.229
G1 F2250 X199.569 Y204.095 E67.29271
G0 F11250 X199.569 Y203.812
G1 F2250 X199.986 Y204.229 E67.2986
G0 F11250 X200.269 Y204.229
G1 F2250 X199.569 Y203.529 E67.30848
G0 F11250 X199.569 Y203.246
G1 F2250 X200.552 Y204.229 E67.32235
G0 F11250 X200.835 Y204.229
G1 F2250 X199.569 Y202.963 E67.34021
G0 F11250 X199.569 Y202.68
G1 F2250 X201.118 Y204.229 E67.36207
G0 F11250 X201.4 Y204.229
G1 F2250 X199.569 Y202.398 E67.38791
G0 F11250 X199.569 Y202.115
G1 F2250 X201.683 Y204.229 E67.41774
G0 F11250 X201.966 Y204.229
G1 F2250 X199.569 Y201.832 E67.45156
G0 F11250 X199.569 Y201.549
G1 F2250 X202.249 Y204.229 E67.48938
G0 F11250 X202.532 Y204.229
G1 F2250 X199.569 Y201.266 E67.53119
G0 F11250 X199.569 Y200.983
G1 F2250 X202.815 Y204.229 E67.577
G0 F11250 X203.098 Y204.229
G1 F2250 X199.569 Y200.7 E67.62679
G0 F11250 X199.569 Y200.418
G1 F2250 X203.38 Y204.229 E67.68057
G0 F11250 X203.663 Y204.229
G1 F2250 X199.569 Y200.135 E67.73834
G0 F11250 X199.569 Y199.852
G1 F2250 X203.946 Y204.229 E67.80011
G0 F11250 X204.229 Y204.229
G1 F2250 X199.569 Y199.569 E67.86586
G0 F11250 X199.569 Y199.286
G1 F2250 X204.512 Y204.229 E67.93562
G0 F11250 X204.795 Y204.229
G1 F2250 X199.569 Y199.003 E68.00936
G0 F11250 X199.569 Y198.721
G1 F2250 X205.077 Y204.229 E68.08708
G0 F11250 X205.36 Y204.229
G1 F2250 X199.569 Y198.438 E68.1688
G0 F11250 X199.569 Y198.155
G1 F2250 X205.643 Y204.229 E68.25451
G0 F11250 X205.926 Y204.229
G1 F2250 X199.569 Y197.872 E68.34422
G0 F11250 X199.569 Y197.589
G1 F2250 X206.209 Y204.229 E68.43791
G0 F11250 X206.492 Y204.229
G1 F2250 X199.569 Y197.306 E68.5356
G0 F11250 X199.569 Y197.023
G1 F2250 X206.774 Y204.229 E68.63728
G0 F11250 X207.057 Y204.229
G1 F2250 X199.569 Y196.741 E68.74295
G0 F11250 X199.569 Y196.458
G1 F2250 X207.34 Y204.229 E68.8526
G0 F11250 X207.623 Y204.229
G1 F2250 X199.569 Y196.175 E68.96625
G0 F11250 X199.569 Y195.892
G1 F2250 X207.906 Y204.229 E69.0839
G0 F11250 X208.189 Y204.229
G1 F2250 X199.73 Y195.77 E69.20326
G0 F11250 X200.012 Y195.77
G1 F2250 X208.472 Y204.229 E69.32264
G0 F11250 X208.754 Y204.229
G1 F2250 X200.295 Y195.77 E69.442
G0 F11250 X200.578 Y195.77
G1 F2250 X209.037 Y204.229 E69.56137
G0 F11250 X209.229 Y204.138
G1 F2250 X200.861 Y195.77 E69.67945
G0 F11250 X201.144 Y195.77
G1 F2250 X209.229 Y203.855 E69.79354
G0 F11250 X209.229 Y203.572
G1 F2250 X201.427 Y195.77 E69.90363
G0 F11250 X201.709 Y195.77
G1 F2250 X209.229 Y203.289 E70.00974
G0 F11250 X209.229 Y203.006
G1 F2250 X201.992 Y195.77 E70.11185
G0 F11250 X202.275 Y195.77
G1 F2250 X209.229 Y202.723 E70.20998
G0 F11250 X209.229 Y202.441
G1 F2250 X202.558 Y195.77 E70.30411
G0 F11250 X202.841 Y195.77
G1 F2250 X209.229 Y202.158 E70.39425
G0 F11250 X209.229 Y201.875
G1 F2250 X203.124 Y195.77 E70.4804
G0 F11250 X203.407 Y195.77
G1 F2250 X209.229 Y201.592 E70.56256
G0 F11250 X209.229 Y201.309
G1 F2250 X203.689 Y195.77 E70.64072
G0 F11250 X203.972 Y195.77
G1 F2250 X209.229 Y201.026 E70.7149
G0 F11250 X209.229 Y200.744
G1 F2250 X204.255 Y195.77 E70.78509
G0 F11250 X204.538 Y195.77
G1 F2250 X209.229 Y200.461 E70.85128
G0 F11250 X209.229 Y200.178
G1 F2250 X204.821 Y195.77 E70.91348
G0 F11250 X205.104 Y195.77
G1 F2250 X209.229 Y199.895 E70.97169
G0 F11250 X209.229 Y199.612
G1 F2250 X205.386 Y195.77 E71.02591
G0 F11250 X205.669 Y195.77
G1 F2250 X209.229 Y199.329 E71.07614
G0 F11250 X209.229 Y199.047
G1 F2250 X205.952 Y195.77 E71.12238
G0 F11250 X206.235 Y195.77
G1 F2250 X209.229 Y198.764 E71.16463
G0 F11250 X209.229 Y198.481
G1 F2250 X206.518 Y195.77 E71.20289
G0 F11250 X206.801 Y195.77
G1 F2250 X209.229 Y198.198 E71.23715
G0 F11250 X209.229 Y197.915
G1 F2250 X207.083 Y195.77 E71.26743
G0 F11250 X207.366 Y195.77
G1 F2250 X209.229 Y197.632 E71.29371
G0 F11250 X209.229 Y197.349
G1 F2250 X207.649 Y195.77 E71.316
G0 F11250 X207.932 Y195.77
G1 F2250 X209.229 Y197.067 E71.3343
G0 F11250 X209.229 Y196.784
G1 F2250 X208.215 Y195.77 E71.34861
G0 F11250 X208.498 Y195.77
G1 F2250 X209.229 Y196.501 E71.35892
G0 F11250 X209.229 Y196.218
G1 F2250 X208.781 Y195.77 E71.36524
G0 F11250 X209.063 Y195.77
G1 F2250 X209.229 Y195.935 E71.36758
G0 F11250 X209.59 Y195.935
;MESH:NONMESH
G0 F300 X209.59 Y195.935 Z3.12
G0 F11250 X209.5 Y204.5
;TIME_ELAPSED:379.186358
;LAYER:25
;TYPE:WALL-INNER
;MESH:Body1.stl
G1 F2250 X190.5 Y204.5 E71.55716
G1 X190.5 Y195.5 E71.64696
G1 X209.5 Y195.5 E71.83655
G1 X209.5 Y204.5 E71.92635
G0 F11250 X209.7 Y204.7
G1 F2250 X190.3 Y204.7 E72.11992
G1 X190.3 Y195.3 E72.21372
G1 X209.7 Y195.3 E72.40729
G1 X209.7 Y204.7 E72.50108
G0 F11250 X209.9 Y204.9
;TYPE:WALL-OUTER
G1 F2250 X190.1 Y204.9 E72.69865
G1 X190.1 Y195.1 E72.79643
G1 X209.9 Y195.1 E72.994
G1 X209.9 Y204.9 E73.09178
G0 F11250 X209.73 Y204.73
G0 X199.372 Y204.418
G0 X199.3 Y202.427
G0 X199.459 Y202.427
;TYPE:FILL
G1 F4500 X191.876 Y204.459 E73.17012
G0 F11250 X192.379 Y204.459
G1 F4500 X194.769 Y195.538 E73.26227
G0 F11250 X194.256 Y195.539
G1 F4500 X190.54 Y196.535 E73.30066
G0 F11250 X190.539 Y195.87
G1 F4500 X190.628 Y195.538 E73.30409
G0 F11250 X193.002 Y195.539
G1 F4500 X199.459 Y201.997 E73.39521
G0 F11250 X199.3 Y201.997
G0 X199.3 Y198.286
G0 X199.459 Y198.286
G1 F4500 X190.54 Y200.676 E73.48734
G0 F11250 X190.539 Y198.733
G1 F4500 X196.265 Y204.459 E73.56814
G0 F11250 X196.52 Y204.459
G1 F4500 X198.91 Y195.539 E73.66029
G0 F11250 X198.66 Y195.54
G1 F4500 X199.459 Y196.34 E73.67157
G0 F11250 X199.3 Y196.34
G0 X190.608 Y204.459
G1 F4500 X190.539 Y204.39 E73.67254
G0 F11250 X199.49 Y204.49
G0 X199.49 Y204.31
;TYPE:SKIN
G1 F2250 X199.49 Y195.69 E73.75855
G1 X209.31 Y195.69 E73.85654
G1 X209.31 Y204.31 E73.94255
G1 X199.49 Y204.31 E74.04053
G0 F11250 X199.49 Y204.49
G0 X199.395 Y204.433
G0 X199.3 Y195.844
G0 X199.569 Y195.844
G1 F2250 X199.644 Y195.769 E74.04159
G0 F11250 X199.927 Y195.769
G1 F2250 X199.569 Y196.127 E74.04664
G0 F11250 X199.569 Y196.41
G1 F2250 X200.21 Y195.769 E74.05569
G0 F11250 X200.493 Y195.769
G1 F2250 X199.569 Y196.693 E74.06873
G0 F11250 X199.569 Y196.975
G1 F2250 X200.775 Y195.769 E74.08574
G0 F11250 X201.058 Y195.769
G1 F2250 X199.569 Y197.258 E74.10676
G0 F11250 X199.569 Y197.541
G1 F2250 X201.341 Y195.769 E74.13176
G0 F11250 X201.624 Y195.769
G1 F2250 X199.569 Y197.824 E74.16076
G0 F11250 X199.569 Y198.107
G1 F2250 X201.907 Y195.769 E74.19375
G0 F11250 X202.19 Y195.769
G1 F2250 X199.569 Y198.39 E74.23074
G0 F11250 X199.569 Y198.672
G1 F2250 X202.472 Y195.769 E74.2717
G0 F11250 X202.755 Y195.769
G1 F2250 X199.569 Y198.955 E74.31666
G0 F11250 X199.569 Y199.238
G1 F2250 X203.038 Y195.769 E74.36561
G0 F11250 X203.321 Y195.769
G1 F2250 X199.569 Y199.521 E74.41855
G0 F11250 X199.569 Y199.804
G1 F2250 X203.604 Y195.769 E74.47549
G0 F11250 X203.887 Y195.769
G1 F2250 X199.569 Y200.087 E74.53642
G0 F11250 X199.569 Y200.37
G1 F2250 X204.17 Y195.769 E74.60135
G0 F11250 X204.452 Y195.769
G1 F2250 X199.569 Y200.652 E74.67025
G0 F11250 X199.569 Y200.935
G1 F2250 X204.735 Y195.769 E74.74315
G0 F11250 X205.018 Y195.769
G1 F2250 X199.569 Y201.218 E74.82004
G0 F11250 X199.569 Y201.501
G1 F2250 X205.301 Y195.769 E74.90093
G0 F11250 X205.584 Y195.769
G1 F2250 X199.569 Y201.784 E74.98581
G0 F11250 X199.569 Y202.067
G1 F2250 X205.867 Y195.769 E75.07468
G0 F11250 X206.149 Y195.769
G1 F2250 X199.569 Y202.349 E75.16753
G0 F11250 X199.569 Y202.632
G1 F2250 X206.432 Y195.769 E75.26437
G0 F11250 X206.715 Y195.769
G1 F2250 X199.569 Y202.915 E75.36521
G0 F11250 X199.569 Y203.198
G1 F2250 X206.998 Y195.769 E75.47004
G0 F11250 X207.281 Y195.769
G1 F2250 X199.569 Y203.481 E75.57887
G0 F11250 X199.569 Y203.764
G1 F2250 X207.564 Y195.769 E75.69168
G0 F11250 X207.846 Y195.769
G1 F2250 X199.569 Y204.046 E75.80848
G0 F11250 X199.669 Y204.23
G1 F2250 X208.129 Y195.769 E75.92787
G0 F11250 X208.412 Y195.769
G1 F2250 X199.952 Y204.23 E76.04725
G0 F11250 X200.234 Y204.23
G1 F2250 X208.695 Y195.769 E76.16665
G0 F11250 X208.978 Y195.769
G1 F2250 X200.517 Y204.23 E76.28604
G0 F11250 X200.8 Y204.23
G1 F2250 X209.229 Y195.801 E76.40498
G0 F11250 X209.229 Y196.084
G1 F2250 X201.083 Y204.23 E76.51993
G0 F11250 X201.366 Y204.23
G1 F2250 X209.229 Y196.367 E76.63089
G0 F11250 X209.229 Y196.649
G1 F2250 X201.649 Y204.23 E76.73786
G0 F11250 X201.932 Y204.23
G1 F2250 X209.229 Y196.932 E76.84083
G0 F11250 X209.229 Y197.215
G1 F2250 X202.214 Y204.23 E76.93982
G0 F11250 X202.497 Y204.23
G1 F2250 X209.229 Y197.498 E77.03482
G0 F11250 X209.229 Y197.781
G1 F2250 X202.78 Y204.23 E77.12582
G0 F11250 X203.063 Y204.23
G1 F2250 X209.229 Y198.064 E77.21283
G0 F11250 X209.229 Y198.346
G1 F2250 X203.346 Y204.23 E77.29585
G0 F11250 X203.629 Y204.23
G1 F2250 X209.229 Y198.629 E77.37488
G0 F11250 X209.229 Y198.912
G1 F2250 X203.911 Y204.23 E77.44992
G0 F11250 X204.194 Y204.23
G1 F2250 X209.229 Y199.195 E77.52097
G0 F11250 X209.229 Y199.478
G1 F2250 X204.477 Y204.23 E77.58803
G0 F11250 X204.76 Y204.23
G1 F2250 X209.229 Y199.761 E77.65109
G0 F11250 X209.229 Y200.044
G1 F2250 X205.043 Y204.23 E77.71016
G0 F11250 X205.326 Y204.23
G1 F2250 X209.229 Y200.326 E77.76524
G0 F11250 X209.229 Y200.609
G1 F2250 X205.608 Y204.23 E77.81634
G0 F11250 X205.891 Y204.23
G1 F2250 X209.229 Y200.892 E77.86344
G0 F11250 X209.229 Y201.175
G1 F2250 X206.174 Y204.23 E77.90655
G0 F11250 X206.457 Y204.23
G1 F2250 X209.229 Y201.458 E77.94567
G0 F11250 X209.229 Y201.741
G1 F2250 X206.74 Y204.23 E77.98079
G0 F11250 X207.023 Y204.23
G1 F2250 X209.229 Y202.023 E78.01193
G0 F11250 X209.229 Y202.306
G1 F2250 X207.306 Y204.23 E78.03907
G0 F11250 X207.588 Y204.23
G1 F2250 X209.229 Y202.589 E78.06223
G0 F11250 X209.229 Y202.872
G1 F2250 X207.871 Y204.23 E78.08139
G0 F11250 X208.154 Y204.23
G1 F2250 X209.229 Y203.155 E78.09656
G0 F11250 X209.229 Y203.438
G1 F2250 X208.437 Y204.23 E78.10773
G0 F11250 X208.72 Y204.23
G1 F2250 X209.229 Y203.72 E78.11492
G0 F11250 X209.229 Y204.003
G1 F2250 X209.003 Y204.23 E78.11812
G0 F11250 X209.003 Y204.59
;MESH:NONMESH
G0 F300 X209.003 Y204.59 Z3.24
G0 F11250 X209.5 Y204.5
;TIME_ELAPSED:405.505826
;LAYER:26
;TYPE:WALL-INNER
;MESH:Body1.stl
G1 F2250 X190.5 Y204.5 E78.3077
G1 X190.5 Y195.5 E78.3975
G1 X209.5 Y195.5 E78.58709
G1 X209.5 Y204.5 E78.67689
G0 F11250 X209.7 Y204.7
G1 F2250 X190.3 Y204.7 E78.87046
G1 X190.3 Y195.3 E78.96426
G1 X209.7 Y195.3 E79.15783
G1 X209.7 Y204.7 E79.25162
G0 F11250 X209.9 Y204.9
;TYPE:WALL-OUTER
G1 F2250 X190.1 Y204.9 E79.44919
G1 X190.1 Y195.1 E79.54697
G1 X209.9 Y195.1 E79.74454
G1 X209.9 Y204.9 E79.84232
G0 F11250 X209.73 Y204.73
G0 X199.372 Y204.418
G0 X199.3 Y202.515
G0 X199.459 Y202.515
;TYPE:FILL
G1 F4500 X192.204 Y204.459 E79.91727
G0 F11250 X192.291 Y204.459
G1 F4500 X194.681 Y195.539 E80.00941
G0 F11250 X194.584 Y195.539
G1 F4500 X190.54 Y196.623 E80.05119
G0 F11250 X190.539 Y198.613
G1 F4500 X196.385 Y204.459 E80.13368
G0 F11250 X196.432 Y204.46
G1 F4500 X198.822 Y195.538 E80.22584
G0 F11250 X198.78 Y195.54
G1 F4500 X199.459 Y196.22 E80.23543
G0 F11250 X199.3 Y196.22
G0 X199.3 Y198.374
G0 X199.459 Y198.374
G1 F4500 X190.54 Y200.764 E80.32757
G0 F11250 X190.539 Y204.27
G1 F4500 X190.728 Y204.459 E80.33023
G0 F11250 X199.3 Y201.876
G0 X199.459 Y201.876
G1 F4500 X193.122 Y195.539 E80.41966
G0 F11250 X199.49 Y195.51
G0 X199.49 Y195.69
;TYPE:SKIN
G1 F2250 X209.31 Y195.69 E80.51764
G1 X209.31 Y204.31 E80.60365
G1 X199.49 Y204.31 E80.70164
G1 X199.49 Y195.69 E80.78765
G0 F11250 X199.49 Y195.51
G0 X199.372 Y195.582
G0 X199.372 Y204.418
G0 X199.703 Y204.49
G0 X199.703 Y204.229
G1 F2250 X199.569 Y204.095 E80.78954
G0 F11250 X199.569 Y203.812
G1 F2250 X199.986 Y204.229 E80.79542
G0 F11250 X200.269 Y204.229
G1 F2250 X199.569 Y203.529 E80.8053
G0 F11250 X199.569 Y203.246
G1 F2250 X200.552 Y204.229 E80.81917
G0 F11250 X200.835 Y204.229
G1 F2250 X199.569 Y202.963 E80.83704
G0 F11250 X199.569 Y202.68
G1 F2250 X201.118 Y204.229 E80.85889
G0 F11250 X201.4 Y204.229
G1 F2250 X199.569 Y202.398 E80.88473
G0 F11250 X199.569 Y202.115
G1 F2250 X201.683 Y204.229 E80.91456
G0 F11250 X201.966 Y204.229
G1 F2250 X199.569 Y201.832 E80.94839
G0 F11250 X199.569 Y201.549
G1 F2250 X202.249 Y204.229 E80.9862
G0 F11250 X202.532 Y204.229
G1 F2250 X199.569 Y201.266 E81.02801
G0 F11250 X199.569 Y200.983
G1 F2250 X202.815 Y204.229 E81.07382
G0 F11250 X203.098 Y204.229
G1 F2250 X199.569 Y200.7 E81.12362
G0 F11250 X199.569 Y200.418
G1 F2250 X203.38 Y204.229 E81.17739
G0 F11250 X203.663 Y204.229
G1 F2250 X199.569 Y200.135 E81.23517
G0 F11250 X199.569 Y199.852
G1 F2250 X203.946 Y204.229 E81.29693
G0 F11250 X204.229 Y204.229
G1 F2250 X199.569 Y199.569 E81.36269
G0 F11250 X199.569 Y199.286
G1 F2250 X204.512 Y204.229 E81.43244
G0 F11250 X204.795 Y204.229
G1 F2250 X199.569 Y199.003 E81.50618
G0 F11250 X199.569 Y198.721
G1 F2250 X205.077 Y204.229 E81.58391
G0 F11250 X205.36 Y204.229
G1 F2250 X199.569 Y198.438 E81.66562
G0 F11250 X199.569 Y198.155
G1 F2250 X205.643 Y204.229 E81.75133
G0 F11250 X205.926 Y204.229
G1 F2250 X199.569 Y197.872 E81.84104
G0 F11250 X199.569 Y197.589
G1 F2250 X206.209 Y204.229 E81.93474
G0 F11250 X206.492 Y204.229
G1 F2250 X199.569 Y197.306 E82.03243
G0 F11250 X199.569 Y197.023
G1 F2250 X206.774 Y204.229 E82.1341
G0 F11250 X207.057 Y204.229
G1 F2250 X199.569 Y196.741 E82.23977
G0 F11250 X199.569 Y196.458
G1 F2250 X207.34 Y204.229 E82.34943
G0 F11250 X207.623 Y204.229
G1 F2250 X199.569 Y196.175 E82.46308
G0 F11250 X199.569 Y195.892
G1 F2250 X207.906 Y204.229 E82.58072
G0 F11250 X208.189 Y204.229
G1 F2250 X199.73 Y195.77 E82.70009
G0 F11250 X200.012 Y195.77
G1 F2250 X208.472 Y204.229 E82.81946
G0 F11250 X208.754 Y204.229
G1 F2250 X200.295 Y195.77 E82.93882
G0 F11250 X200.578 Y195.77
G1 F2250 X209.037 Y204.229 E83.05819
G0 F11250 X209.229 Y204.138
G1 F2250 X200.861 Y195.77 E83.17627
G0 F11250 X201.144 Y195.77
G1 F2250 X209.229 Y203.855 E83.29036
G0 F11250 X209.229 Y203.572
G1 F2250 X201.427 Y195.77 E83.40045
G0 F11250 X201.709 Y195.77
G1 F2250 X209.229 Y203.289 E83.50656
G0 F11250 X209.229 Y203.006
G1 F2250 X201.992 Y195.77 E83.60868
G0 F11250 X202.275 Y195.77
G1 F2250 X209.229 Y202.723 E83.7068
G0 F11250 X209.229 Y202.441
G1 F2250 X202.558 Y195.77 E83.80093
G0 F11250 X202.841 Y195.77
G1 F2250 X209.229 Y202.158 E83.89108
G0 F11250 X209.229 Y201.875
G1 F2250 X203.124 Y195.77 E83.97722
G0 F11250 X203.407 Y195.77
G1 F2250 X209.229 Y201.592 E84.05938
G0 F11250 X209.229 Y201.309
G1 F2250 X203.689 Y195.77 E84.13755
G0 F11250 X203.972 Y195.77
G1 F2250 X209.229 Y201.026 E84.21172
G0 F11250 X209.229 Y200.744
G1 F2250 X204.255 Y195.77 E84.28191
G0 F11250 X204.538 Y195.77
G1 F2250 X209.229 Y200.461 E84.3481
G0 F11250 X209.229 Y200.178
G1 F2250 X204.821 Y195.77 E84.41031
G0 F11250 X205.104 Y195.77
G1 F2250 X209.229 Y199.895 E84.46851
G0 F11250 X209.229 Y199.612
G1 F2250 X205.386 Y195.77 E84.52274
G0 F11250 X205.669 Y195.77
G1 F2250 X209.229 Y199.329 E84.57296
G0 F11250 X209.229 Y199.047
G1 F2250 X205.952 Y195.77 E84.61921
G0 F11250 X206.235 Y195.77
G1 F2250 X209.229 Y198.764 E84.66146
G0 F11250 X209.229 Y198.481
G1 F2250 X206.518 Y195.77 E84.69971
G0 F11250 X206.801 Y195.77
G1 F2250 X209.229 Y198.198 E84.73397
G0 F11250 X209.229 Y197.915
G1 F2250 X207.083 Y195.77 E84.76425
G0 F11250 X207.366 Y195.77
G1 F2250 X209.229 Y197.632 E84.79053
G0 F11250 X209.229 Y197.349
G1 F2250 X207.649 Y195.77 E84.81282
G0 F11250 X207.932 Y195.77
G1 F2250 X209.229 Y197.067 E84.83112
G0 F11250 X209.229 Y196.784
G1 F2250 X208.215 Y195.77 E84.84543
G0 F11250 X208.498 Y195.77
G1 F2250 X209.229 Y196.501 E84.85574
G0 F11250 X209.229 Y196.218
G1 F2250 X208.781 Y195.77 E84.86207
G0 F11250 X209.063 Y195.77
G1 F2250 X209.229 Y195.935 E84.8644
G0 F11250 X209.59 Y195.935
;MESH:NONMESH
G0 F300 X209.59 Y195.935 Z3.36
G0 F11250 X209.5 Y204.5
;TIME_ELAPSED:431.779420
;LAYER:27
;TYPE:WALL-INNER
;MESH:Body1.stl
G1 F2250 X190.5 Y204.5 E85.05398
G1 X190.5 Y195.5 E85.14379
G1 X209.5 Y195.5 E85.33337
G1 X209.5 Y204.5 E85.42317
G0 F11250 X209.7 Y204.7
G1 F2250 X190.3 Y204.7 E85.61675
G1 X190.3 Y195.3 E85.71054
G1 X209.7 Y195.3 E85.90411
G1 X209.7 Y204.7 E85.99791
G0 F11250 X209.9 Y204.9
;TYPE:WALL-OUTER
G1 F2250 X190.1 Y204.9 E86.19547
G1 X190.1 Y195.1 E86.29326
G1 X209.9 Y195.1 E86.49082
G1 X209.9 Y204.9 E86.58861
G0 F11250 X209.73 Y204.73
G0 X199.372 Y204.418
G0 X199.3 Y202.602
G0 X199.458 Y202.602
;TYPE:FILL
G1 F4500 X192.528 Y204.459 E86.66019
G0 F11250 X192.204 Y204.459
G1 F4500 X194.594 Y195.538 E86.75235
G0 F11250 X194.909 Y195.539
G1 F4500 X190.539 Y196.71 E86.79749
G0 F11250 X190.539 Y198.494
G1 F4500 X196.504 Y204.459 E86.88166
G0 F11250 X196.345 Y204.459
G1 F4500 X198.735 Y195.539 E86.97381
G0 F11250 X198.899 Y195.54
G1 F4500 X199.459 Y196.101 E86.98171
G0 F11250 X199.3 Y196.101
G0 X199.3 Y198.461
G0 X199.459 Y198.461
G1 F4500 X190.539 Y200.851 E87.07386
G0 F11250 X190.539 Y204.151
G1 F4500 X190.847 Y204.459 E87.0782
G0 F11250 X199.3 Y201.758
G0 X199.459 Y201.758
G1 F4500 X193.241 Y195.539 E87.16595
G0 F11250 X199.49 Y195.51
G0 X199.49 Y195.69
;TYPE:SKIN
G1 F2250 X209.31 Y195.69 E87.26394
G1 X209.31 Y204.31 E87.34995
G1 X199.49 Y204.31 E87.44793
G1 X199.49 Y195.69 E87.53394
G0 F11250 X199.569 Y195.844
G1 F2250 X199.644 Y195.769 E87.535
G0 F11250 X199.927 Y195.769
G1 F2250 X199.569 Y196.127 E87.54005
G0 F11250 X199.569 Y196.41
G1 F2250 X200.21 Y195.769 E87.5491
G0 F11250 X200.493 Y195.769
G1 F2250 X199.569 Y196.693 E87.56214
G0 F11250 X199.569 Y196.975
G1 F2250 X200.775 Y195.769 E87.57916
G0 F11250 X201.058 Y195.769
G1 F2250 X199.569 Y197.258 E87.60017
G0 F11250 X199.569 Y197.541
G1 F2250 X201.341 Y195.769 E87.62517
G0 F11250 X201.624 Y195.769
G1 F2250 X199.569 Y197.824 E87.65417
G0 F11250 X199.569 Y198.107
G1 F2250 X201.907 Y195.769 E87.68716
G0 F11250 X202.19 Y195.769
G1 F2250 X199.569 Y198.39 E87.72415
G0 F11250 X199.569 Y198.672
G1 F2250 X202.472 Y195.769 E87.76511
G0 F11250 X202.755 Y195.769
G1 F2250 X199.569 Y198.955 E87.81007
G0 F11250 X199.569 Y199.238
G1 F2250 X203.038 Y195.769 E87.85902
G0 F11250 X203.321 Y195.769
G1 F2250 X199.569 Y199.521 E87.91197
G0 F11250 X199.569 Y199.804
G1 F2250 X203.604 Y195.769 E87.9689
G0 F11250 X203.887 Y195.769
G1 F2250 X199.569 Y200.087 E88.02984
G0 F11250 X199.569 Y200.37
G1 F2250 X204.17 Y195.769 E88.09476
G0 F11250 X204.452 Y195.769
G1 F2250 X199.569 Y200.652 E88.16367
G0 F11250 X199.569 Y200.935
G1 F2250 X204.735 Y195.769 E88.23656
G0 F11250 X205.018 Y195.769
G1 F2250 X199.569 Y201.218 E88.31345
G0 F11250 X199.569 Y201.501
G1 F2250 X205.301 Y195.769 E88.39434
G0 F11250 X205.584 Y195.769
G1 F2250 X199.569 Y201.784 E88.47922
G0 F11250 X199.569 Y202.067
G1 F2250 X205.867 Y195.769 E88.56809
G0 F11250 X206.149 Y195.769
G1 F2250 X199.569 Y202.349 E88.66094
G0 F11250 X199.569 Y202.632
G1 F2250 X206.432 Y195.769 E88.75778
G0 F11250 X206.715 Y195.769
G1 F2250 X199.569 Y202.915 E88.85862
G0 F11250 X199.569 Y203.198
G1 F2250 X206.998 Y195.769 E88.96345
G0 F11250 X207.281 Y195.769
G1 F2250 X199.569 Y203.481 E89.07228
G0 F11250 X199.569 Y203.764
G1 F2250 X207.564 Y195.769 E89.1851
G0 F11250 X207.846 Y195.769
G1 F2250 X199.569 Y204.046 E89.30189
G0 F11250 X199.669 Y204.23
G1 F2250 X208.129 Y195.769 E89.42128
G0 F11250 X208.412 Y195.769
G1 F2250 X199.952 Y204.23 E89.54067
G0 F11250 X200.234 Y204.23
G1 F2250 X208.695 Y195.769 E89.66006
G0 F11250 X208.978 Y195.769
G1 F2250 X200.517 Y204.23 E89.77945
G0 F11250 X200.8 Y204.23
G1 F2250 X209.229 Y195.801 E89.8984
G0 F11250 X209.229 Y196.084
G1 F2250 X201.083 Y204.23 E90.01335
G0 F11250 X201.366 Y204.23
G1 F2250 X209.229 Y196.367 E90.1243
G0 F11250 X209.229 Y196.649
G1 F2250 X201.649 Y204.23 E90.23127
G0 F11250 X201.932 Y204.23
G1 F2250 X209.229 Y196.932 E90.33425
G0 F11250 X209.229 Y197.215
G1 F2250 X202.214 Y204.23 E90.43324
G0 F11250 X202.497 Y204.23
G1 F2250 X209.229 Y197.498 E90.52823
G0 F11250 X209.229 Y197.781
G1 F2250 X202.78 Y204.23 E90.61923
G0 F11250 X203.063 Y204.23
G1 F2250 X209.229 Y198.064 E90.70624
G0 F11250 X209.229 Y198.346
G1 F2250 X203.346 Y204.23 E90.78926
G0 F11250 X203.629 Y204.23
G1 F2250 X209.229 Y198.629 E90.86829
G0 F11250 X209.229 Y198.912
G1 F2250 X203.911 Y204.23 E90.94334
G0 F11250 X204.194 Y204.23
G1 F2250 X209.229 Y199.195 E91.01439
G0 F11250 X209.229 Y199.478
G1 F2250 X204.477 Y204.23 E91.08144
G0 F11250 X204.76 Y204.23
G1 F2250 X209.229 Y199.761 E91.1445
G0 F11250 X209.229 Y200.044
G1 F2250 X205.043 Y204.23 E91.20357
G0 F11250 X205.326 Y204.23
G1 F2250 X209.229 Y200.326 E91.25866
G0 F11250 X209.229 Y200.609
G1 F2250 X205.608 Y204.23 E91.30975
G0 F11250 X205.891 Y204.23
G1 F2250 X209.229 Y200.892 E91.35685
G0 F11250 X209.229 Y201.175
G1 F2250 X206.174 Y204.23 E91.39996
G0 F11250 X206.457 Y204.23
G1 F2250 X209.229 Y201.458 E91.43908
G0 F11250 X209.229 Y201.741
G1 F2250 X206.74 Y204.23 E91.4742
G0 F11250 X207.023 Y204.23
G1 F2250 X209.229 Y202.023 E91.50534
G0 F11250 X209.229 Y202.306
G1 F2250 X207.306 Y204.23 E91.53248
G0 F11250 X207.588 Y204.23
G1 F2250 X209.229 Y202.589 E91.55564
G0 F11250 X209.229 Y202.872
G1 F2250 X207.871 Y204.23 E91.5748
G0 F11250 X208.154 Y204.23
G1 F2250 X209.229 Y203.155 E91.58997
G0 F11250 X209.229 Y203.438
G1 F2250 X208.437 Y204.23 E91.60115
G0 F11250 X208.72 Y204.23
G1 F2250 X209.229 Y203.72 E91.60834
G0 F11250 X209.229 Y204.003
G1 F2250 X209.003 Y204.23 E91.61153
G0 F11250 X209.003 Y204.59
;MESH:NONMESH
G0 F300 X209.003 Y204.59 Z3.48
G0 F11250 X209.5 Y204.5
;TIME_ELAPSED:457.597251
;LAYER:28
;TYPE:WALL-INNER
;MESH:Body1.stl
G1 F2250 X190.5 Y204.5 E91.80111
G1 X190.5 Y195.5 E91.89092
G1 X209.5 Y195.5 E92.0805
G1 X209.5 Y204.5 E92.1703
G0 F11250 X209.7 Y204.7
G1 F2250 X190.3 Y204.7 E92.36388
G1 X190.3 Y195.3 E92.45767
G1 X209.7 Y195.3 E92.65124
G1 X209.7 Y204.7 E92.74504
G0 F11250 X209.9 Y204.9
;TYPE:WALL-OUTER
G1 F2250 X190.1 Y204.9 E92.9426
G1 X190.1 Y195.1 E93.04039
G1 X209.9 Y195.1 E93.23795
G1 X209.9 Y204.9 E93.33574
G0 F11250 X209.73 Y204.73
G0 X199.372 Y204.418
G0 X199.3 Y202.69
G0 X199.458 Y202.69
;TYPE:FILL
G1 F4500 X192.856 Y204.459 E93.40394
G0 F11250 X192.116 Y204.46
G1 F4500 X194.506 Y195.538 E93.4961
G0 F11250 X195.237 Y195.539
G1 F4500 X190.54 Y196.798 E93.54462
G0 F11250 X190.539 Y198.374
G1 F4500 X196.624 Y204.459 E93.63049
G0 F11250 X196.257 Y204.459
G1 F4500 X198.647 Y195.539 E93.72263
G0 F11250 X199.019 Y195.54
G1 F4500 X199.459 Y195.981 E93.72885
G0 F11250 X199.3 Y195.981
G0 X199.3 Y198.549
G0 X199.458 Y198.549
G1 F4500 X190.54 Y200.939 E93.82097
G0 F11250 X190.539 Y204.031
G1 F4500 X190.967 Y204.459 E93.82701
G0 F11250 X199.3 Y201.637
G0 X199.459 Y201.637
G1 F4500 X193.361 Y195.539 E93.91306
G0 F11250 X199.49 Y195.51
G0 X199.49 Y195.69
;TYPE:SKIN
G1 F2250 X209.31 Y195.69 E94.01104
G1 X209.31 Y204.31 E94.09705
G1 X199.49 Y204.31 E94.19504
G1 X199.49 Y195.69 E94.28105
G0 F11250 X199.49 Y195.51
G0 X199.372 Y195.582
G0 X199.372 Y204.418
G0 X199.703 Y204.49
G0 X199.703 Y204.229
G1 F2250 X199.569 Y204.095 E94.28294
G0 F11250 X199.569 Y203.812
G1 F2250 X199.986 Y204.229 E94.28882
G0 F11250 X200.269 Y204.229
G1 F2250 X199.569 Y203.529 E94.2987
G0 F11250 X199.569 Y203.246
G1 F2250 X200.552 Y204.229 E94.31257
G0 F11250 X200.835 Y204.229
G1 F2250 X199.569 Y202.963 E94.33044
G0 F11250 X199.569 Y202.68
G1 F2250 X201.118 Y204.229 E94.3523
G0 F11250 X201.4 Y204.229
G1 F2250 X199.569 Y202.398 E94.37813
G0 F11250 X199.569 Y202.115
G1 F2250 X201.683 Y204.229 E94.40796
G0 F11250 X201.966 Y204.229
G1 F2250 X199.569 Y201.832 E94.44179
G0 F11250 X199.569 Y201.549
G1 F2250 X202.249 Y204.229 E94.47961
G0 F11250 X202.532 Y204.229
G1 F2250 X199.569 Y201.266 E94.52142
G0 F11250 X199.569 Y200.983
G1 F2250 X202.815 Y204.229 E94.56722
G0 F11250 X203.098 Y204.229
G1 F2250 X199.569 Y200.7 E94.61702
G0 F11250 X199.569 Y200.418
G1 F2250 X203.38 Y204.229 E94.6708
G0 F11250 X203.663 Y204.229
G1 F2250 X199.569 Y200.135 E94.72857
G0 F11250 X199.569 Y199.852
G1 F2250 X203.946 Y204.229 E94.79033
G0 F11250 X204.229 Y204.229
G1 F2250 X199.569 Y199.569 E94.85609
G0 F11250 X199.569 Y199.286
G1 F2250 X204.512 Y204.229 E94.92584
G0 F11250 X204.795 Y204.229
G1 F2250 X199.569 Y199.003 E94.99958
G0 F11250 X199.569 Y198.721
G1 F2250 X205.077 Y204.229 E95.07731
G0 F11250 X205.36 Y204.229
G1 F2250 X199.569 Y198.438 E95.15903
G0 F11250 X199.569 Y198.155
G1 F2250 X205.643 Y204.229 E95.24474
G0 F11250 X205.926 Y204.229
G1 F2250 X199.569 Y197.872 E95.33444
G0 F11250 X199.569 Y197.589
G1 F2250 X206.209 Y204.229 E95.42814
G0 F11250 X206.492 Y204.229
G1 F2250 X199.569 Y197.306 E95.52583
G0 F11250 X199.569 Y197.023
G1 F2250 X206.774 Y204.229 E95.62751
G0 F11250 X207.057 Y204.229
G1 F2250 X199.569 Y196.741 E95.73317
G0 F11250 X199.569 Y196.458
G1 F2250 X207.34 Y204.229 E95.84283
G0 F11250 X207.623 Y204.229
G1 F2250 X199.569 Y196.175 E95.95648
G0 F11250 X199.569 Y195.892
G1 F2250 X207.906 Y204.229 E96.07412
G0 F11250 X208.189 Y204.229
G1 F2250 X199.73 Y195.77 E96.19349
G0 F11250 X200.012 Y195.77
G1 F2250 X208.472 Y204.229 E96.31286
G0 F11250 X208.754 Y204.229
G1 F2250 X200.295 Y195.77 E96.43223
G0 F11250 X200.578 Y195.77
G1 F2250 X209.037 Y204.229 E96.55159
G0 F11250 X209.229 Y204.138
G1 F2250 X200.861 Y195.77 E96.66967
G0 F11250 X201.144 Y195.77
G1 F2250 X209.229 Y203.855 E96.78376
G0 F11250 X209.229 Y203.572
G1 F2250 X201.427 Y195.77 E96.89386
G0 F11250 X201.709 Y195.77
G1 F2250 X209.229 Y203.289 E96.99996
G0 F11250 X209.229 Y203.006
G1 F2250 X201.992 Y195.77 E97.10208
G0 F11250 X202.275 Y195.77
G1 F2250 X209.229 Y202.723 E97.2002
G0 F11250 X209.229 Y202.441
G1 F2250 X202.558 Y195.77 E97.29434
G0 F11250 X202.841 Y195.77
G1 F2250 X209.229 Y202.158 E97.38448
G0 F11250 X209.229 Y201.875
G1 F2250 X203.124 Y195.77 E97.47063
G0 F11250 X203.407 Y195.77
G1 F2250 X209.229 Y201.592 E97.55278
G0 F11250 X209.229 Y201.309
G1 F2250 X203.689 Y195.77 E97.63095
G0 F11250 X203.972 Y195.77
G1 F2250 X209.229 Y201.026 E97.70512
G0 F11250 X209.229 Y200.744
G1 F2250 X204.255 Y195.77 E97.77531
G0 F11250 X204.538 Y195.77
G1 F2250 X209.229 Y200.461 E97.84151
G0 F11250 X209.229 Y200.178
G1 F2250 X204.821 Y195.77 E97.90371
G0 F11250 X205.104 Y195.77
G1 F2250 X209.229 Y199.895 E97.96192
G0 F11250 X209.229 Y199.612
G1 F2250 X205.386 Y195.77 E98.01614
G0 F11250 X205.669 Y195.77
G1 F2250 X209.229 Y199.329 E98.06637
G0 F11250 X209.229 Y199.047
G1 F2250 X205.952 Y195.77 E98.11261
G0 F11250 X206.235 Y195.77
G1 F2250 X209.229 Y198.764 E98.15486
G0 F11250 X209.229 Y198.481
G1 F2250 X206.518 Y195.77 E98.19311
G0 F11250 X206.801 Y195.77
G1 F2250 X209.229 Y198.198 E98.22737
G0 F11250 X209.229 Y197.915
G1 F2250 X207.083 Y195.77 E98.25765
G0 F11250 X207.366 Y195.77
G1 F2250 X209.229 Y197.632 E98.28393
G0 F11250 X209.229 Y197.349
G1 F2250 X207.649 Y195.77 E98.30622
G0 F11250 X207.932 Y195.77
G1 F2250 X209.229 Y197.067 E98.32452
G0 F11250 X209.229 Y196.784
G1 F2250 X208.215 Y195.77 E98.33883
G0 F11250 X208.498 Y195.77
G1 F2250 X209.229 Y196.501 E98.34915
G0 F11250 X209.229 Y196.218
G1 F2250 X208.781 Y195.77 E98.35547
G0 F11250 X209.063 Y195.77
G1 F2250 X209.229 Y195.935 E98.3578
G0 F11250 X209.59 Y195.935
;MESH:NONMESH
G0 F300 X209.59 Y195.935 Z3.6
G0 F11250 X209.5 Y204.5
;TIME_ELAPSED:483.973985
;LAYER:29
;TYPE:WALL-INNER
;MESH:Body1.stl
G1 F2250 X190.5 Y204.5 E98.54739
G1 X190.5 Y195.5 E98.63719
G1 X209.5 Y195.5 E98.82677
G1 X209.5 Y204.5 E98.91657
G0 F11250 X209.7 Y204.7
G1 F2250 X190.3 Y204.7 E99.11015
G1 X190.3 Y195.3 E99.20394
G1 X209.7 Y195.3 E99.39752
G1 X209.7 Y204.7 E99.49131
G0 F11250 X209.9 Y204.9
;TYPE:WALL-OUTER
G1 F2250 X190.1 Y204.9 E99.68887
G1 X190.1 Y195.1 E99.78666
G1 X209.9 Y195.1 E99.98422
G1 X209.9 Y204.9 E100.08201
G0 F11250 X209.73 Y204.73
G0 X199.372 Y204.418
G0 X199.3 Y202.778
G0 X199.459 Y202.778
;TYPE:FILL
G1 F4500 X193.185 Y204.459 E100.14682
G0 F11250 X192.028 Y204.459
G1 F4500 X194.418 Y195.539 E100.23896
G0 F11250 X193.482 Y195.539
G1 F4500 X199.459 Y201.517 E100.32331
G0 F11250 X199.3 Y201.517
G0 X199.3 Y198.637
G0 X199.459 Y198.637
G1 F4500 X190.54 Y201.027 E100.41545
G0 F11250 X190.539 Y198.254
G1 F4500 X196.744 Y204.459 E100.503
G0 F11250 X196.169 Y204.46
G1 F4500 X198.559 Y195.539 E100.59516
G0 F11250 X199.139 Y195.54
G1 F4500 X199.459 Y195.86 E100.59967
G0 F11250 X199.3 Y195.86
G0 X195.566 Y195.539
G1 F4500 X190.54 Y196.886 E100.65159
G0 F11250 X190.539 Y203.911
G1 F4500 X191.087 Y204.459 E100.65933
G0 F11250 X199.49 Y204.49
G0 X199.49 Y204.31
;TYPE:SKIN
G1 F2250 X199.49 Y195.69 E100.74534
G1 X209.31 Y195.69 E100.84332
G1 X209.31 Y204.31 E100.92933
G1 X199.49 Y204.31 E101.02732
G0 F11250 X199.49 Y204.49
G0 X199.395 Y204.433
G0 X199.3 Y195.844
G0 X199.569 Y195.844
G1 F2250 X199.644 Y195.769 E101.02837
G0 F11250 X199.927 Y195.769
G1 F2250 X199.569 Y196.127 E101.03343
G0 F11250 X199.569 Y196.41
G1 F2250 X200.21 Y195.769 E101.04247
G0 F11250 X200.493 Y195.769
G1 F2250 X199.569 Y196.693 E101.05551
G0 F11250 X199.569 Y196.975
G1 F2250 X200.775 Y195.769 E101.07253
G0 F11250 X201.058 Y195.769
G1 F2250 X199.569 Y197.258 E101.09354
G0 F11250 X199.569 Y197.541
G1 F2250 X201.341 Y195.769 E101.11854
G0 F11250 X201.624 Y195.769
G1 F2250 X199.569 Y197.824 E101.14754
G0 F11250 X199.569 Y198.107
G1 F2250 X201.907 Y195.769 E101.18053
G0 F11250 X202.19 Y195.769
G1 F2250 X199.569 Y198.39 E101.21752
G0 F11250 X199.569 Y198.672
G1 F2250 X202.472 Y195.769 E101.25848
G0 F11250 X202.755 Y195.769
G1 F2250 X199.569 Y198.955 E101.30344
G0 F11250 X199.569 Y199.238
G1 F2250 X203.038 Y195.769 E101.35239
G0 F11250 X203.321 Y195.769
G1 F2250 X199.569 Y199.521 E101.40534
G0 F11250 X199.569 Y199.804
G1 F2250 X203.604 Y195.769 E101.46228
G0 F11250 X203.887 Y195.769
G1 F2250 X199.569 Y200.087 E101.52321
G0 F11250 X199.569 Y200.37
G1 F2250 X204.17 Y195.769 E101.58813
G0 F11250 X204.452 Y195.769
G1 F2250 X199.569 Y200.652 E101.65704
G0 F11250 X199.569 Y200.935
G1 F2250 X204.735 Y195.769 E101.72993
G0 F11250 X205.018 Y195.769
G1 F2250 X199.569 Y201.218 E101.80683
G0 F11250 X199.569 Y201.501
G1 F2250 X205.301 Y195.769 E101.88771
G0 F11250 X205.584 Y195.769
G1 F2250 X199.569 Y201.784 E101.97259
G0 F11250 X199.569 Y202.067
G1 F2250 X205.867 Y195.769 E102.06146
G0 F11250 X206.149 Y195.769
G1 F2250 X199.569 Y202.349 E102.15431
G0 F11250 X199.569 Y202.632
G1 F2250 X206.432 Y195.769 E102.25116
G0 F11250 X206.715 Y195.769
G1 F2250 X199.569 Y202.915 E102.35199
G0 F11250 X199.569 Y203.198
G1 F2250 X206.998 Y195.769 E102.45682
G0 F11250 X207.281 Y195.769
G1 F2250 X199.569 Y203.481 E102.56565
G0 F11250 X199.569 Y203.764
G1 F2250 X207.564 Y195.769 E102.67847
G0 F11250 X207.846 Y195.769
G1 F2250 X199.569 Y204.046 E102.79526
G0 F11250 X199.669 Y204.23
G1 F2250 X208.129 Y195.769 E102.91465
G0 F11250 X208.412 Y195.769
G1 F2250 X199.952 Y204.23 E103.03404
G0 F11250 X200.234 Y204.23
G1 F2250 X208.695 Y195.769 E103.15343
G0 F11250 X208.978 Y195.769
G1 F2250 X200.517 Y204.23 E103.27283
G0 F11250 X200.8 Y204.23
G1 F2250 X209.229 Y195.801 E103.39177
G0 F11250 X209.229 Y196.084
G1 F2250 X201.083 Y204.23 E103.50672
G0 F11250 X201.366 Y204.23
G1 F2250 X209.229 Y196.367 E103.61767
G0 F11250 X209.229 Y196.649
G1 F2250 X201.649 Y204.23 E103.72464
G0 F11250 X201.932 Y204.23
G1 F2250 X209.229 Y196.932 E103.82762
G0 F11250 X209.229 Y197.215
G1 F2250 X202.214 Y204.23 E103.92661
G0 F11250 X202.497 Y204.23
G1 F2250 X209.229 Y197.498 E104.0216
G0 F11250 X209.229 Y197.781
G1 F2250 X202.78 Y204.23 E104.1126
G0 F11250 X203.063 Y204.23
G1 F2250 X209.229 Y198.064 E104.19961
G0 F11250 X209.229 Y198.346
G1 F2250 X203.346 Y204.23 E104.28264
G0 F11250 X203.629 Y204.23
G1 F2250 X209.229 Y198.629 E104.36167
G0 F11250 X209.229 Y198.912
G1 F2250 X203.911 Y204.23 E104.43671
G0 F11250 X204.194 Y204.23
G1 F2250 X209.229 Y199.195 E104.50776
G0 F11250 X209.229 Y199.478
G1 F2250 X204.477 Y204.23 E104.57481
G0 F11250 X204.76 Y204.23
G1 F2250 X209.229 Y199.761 E104.63788
G0 F11250 X209.229 Y200.044
G1 F2250 X205.043 Y204.23 E104.69694
G0 F11250 X205.326 Y204.23
G1 F2250 X209.229 Y200.326 E104.75203
G0 F11250 X209.229 Y200.609
G1 F2250 X205.608 Y204.23 E104.80312
G0 F11250 X205.891 Y204.23
G1 F2250 X209.229 Y200.892 E104.85023
G0 F11250 X209.229 Y201.175
G1 F2250 X206.174 Y204.23 E104.89334
G0 F11250 X206.457 Y204.23
G1 F2250 X209.229 Y201.458 E104.93245
G0 F11250 X209.229 Y201.741
G1 F2250 X206.74 Y204.23 E104.96757
G0 F11250 X207.023 Y204.23
G1 F2250 X209.229 Y202.023 E104.99871
G0 F11250 X209.229 Y202.306
G1 F2250 X207.306 Y204.23 E105.02585
G0 F11250 X207.588 Y204.23
G1 F2250 X209.229 Y202.589 E105.04901
G0 F11250 X209.229 Y202.872
G1 F2250 X207.871 Y204.23 E105.06817
G0 F11250 X208.154 Y204.23
G1 F2250 X209.229 Y203.155 E105.08334
G0 F11250 X209.229 Y203.438
G1 F2250 X208.437 Y204.23 E105.09452
G0 F11250 X208.72 Y204.23
G1 F2250 X209.229 Y203.72 E105.10171
G0 F11250 X209.229 Y204.003
G1 F2250 X209.003 Y204.23 E105.1049
G0 F11250 X209.003 Y204.59
;MESH:NONMESH
G0 F300 X209.003 Y204.59 Z3.72
G0 F11250 X209.5 Y204.5
;TIME_ELAPSED:510.241063
;LAYER:30
;TYPE:WALL-INNER
;MESH:Body1.stl
G1 F2250 X190.5 Y204.5 E105.29449
G1 X190.5 Y195.5 E105.38429
G1 X209.5 Y195.5 E105.57387
G1 X209.5 Y204.5 E105.66367
G0 F11250 X209.7 Y204.7
G1 F2250 X190.3 Y204.7 E105.85725
G1 X190.3 Y195.3 E105.95104
G1 X209.7 Y195.3 E106.14461
G1 X209.7 Y204.7 E106.23841
G0 F11250 X209.9 Y204.9
;TYPE:WALL-OUTER
G1 F2250 X190.1 Y204.9 E106.43597
G1 X190.1 Y195.1 E106.53376
G1 X209.9 Y195.1 E106.73132
G1 X209.9 Y204.9 E106.82911
G0 F11250 X209.73 Y204.73
G0 X199.372 Y204.418
G0 X199.3 Y202.866
G0 X199.459 Y202.866
;TYPE:FILL
G1 F4500 X193.513 Y204.459 E106.89053
G0 F11250 X191.94 Y204.459
G1 F4500 X194.33 Y195.539 E106.98267
G0 F11250 X193.602 Y195.539
G1 F4500 X199.459 Y201.397 E107.06533
G0 F11250 X199.3 Y201.397
G0 X199.3 Y198.725
G0 X199.459 Y198.725
G1 F4500 X190.54 Y201.115 E107.15746
G0 F11250 X190.539 Y203.791
G1 F4500 X191.208 Y204.459 E107.1669
G0 F11250 X196.081 Y204.46
G1 F4500 X198.471 Y195.539 E107.25905
G0 F11250 X199.259 Y195.54
G1 F4500 X199.459 Y195.74 E107.26187
G0 F11250 X199.3 Y195.74
G0 X195.894 Y195.539
G1 F4500 X190.54 Y196.974 E107.31718
G0 F11250 X190.539 Y198.134
G1 F4500 X196.864 Y204.459 E107.40643
G0 F11250 X199.49 Y204.49
G0 X199.49 Y204.31
;TYPE:SKIN
G1 F2250 X199.49 Y195.69 E107.49244
G1 X209.31 Y195.69 E107.59043
G1 X209.31 Y204.31 E107.67644
G1 X199.49 Y204.31 E107.77442
G0 F11250 X199.703 Y204.229
G1 F2250 X199.569 Y204.095 E107.77631
G0 F11250 X199.569 Y203.812
G1 F2250 X199.986 Y204.229 E107.7822
G0 F11250 X200.269 Y204.229
G1 F2250 X199.569 Y203.529 E107.79208
G0 F11250 X199.569 Y203.246
G1 F2250 X200.552 Y204.229 E107.80595
G0 F11250 X200.835 Y204.229
G1 F2250 X199.569 Y202.963 E107.82381
G0 F11250 X199.569 Y202.68
G1 F2250 X201.118 Y204.229 E107.84567
G0 F11250 X201.4 Y204.229
G1 F2250 X199.569 Y202.398 E107.87151
G0 F11250 X199.569 Y202.115
G1 F2250 X201.683 Y204.229 E107.90134
G0 F11250 X201.966 Y204.229
G1 F2250 X199.569 Y201.832 E107.93516
G0 F11250 X199.569 Y201.549
G1 F2250 X202.249 Y204.229 E107.97298
G0 F11250 X202.532 Y204.229
G1 F2250 X199.569 Y201.266 E108.01479
G0 F11250 X199.569 Y200.983
G1 F2250 X202.815 Y204.229 E108.0606
G0 F11250 X203.098 Y204.229
G1 F2250 X199.569 Y200.7 E108.11039
G0 F11250 X199.569 Y200.418
G1 F2250 X203.38 Y204.229 E108.16417
G0 F11250 X203.663 Y204.229
G1 F2250 X199.569 Y200.135 E108.22194
G0 F11250 X199.569 Y199.852
G1 F2250 X203.946 Y204.229 E108.28371
G0 F11250 X204.229 Y204.229
G1 F2250 X199.569 Y199.569 E108.34946
G0 F11250 X199.569 Y199.286
G1 F2250 X204.512 Y204.229 E108.41921
G0 F11250 X204.795 Y204.229
G1 F2250 X199.569 Y199.003 E108.49296
G0 F11250 X199.569 Y198.721
G1 F2250 X205.077 Y204.229 E108.57068
G0 F11250 X205.36 Y204.229
G1 F2250 X199.569 Y198.438 E108.6524
G0 F11250 X199.569 Y198.155
G1 F2250 X205.643 Y204.229 E108.73811
G0 F11250 X205.926 Y204.229
G1 F2250 X199.569 Y197.872 E108.82781
G0 F11250 X199.569 Y197.589
G1 F2250 X206.209 Y204.229 E108.92151
G0 F11250 X206.492 Y204.229
G1 F2250 X199.569 Y197.306 E109.0192
G0 F11250 X199.569 Y197.023
G1 F2250 X206.774 Y204.229 E109.12088
G0 F11250 X207.057 Y204.229
G1 F2250 X199.569 Y196.741 E109.22654
G0 F11250 X199.569 Y196.458
G1 F2250 X207.34 Y204.229 E109.3362
G0 F11250 X207.623 Y204.229
G1 F2250 X199.569 Y196.175 E109.44985
G0 F11250 X199.569 Y195.892
G1 F2250 X207.906 Y204.229 E109.5675
G0 F11250 X208.189 Y204.229
G1 F2250 X199.73 Y195.77 E109.68686
G0 F11250 X200.012 Y195.77
G1 F2250 X208.472 Y204.229 E109.80623
G0 F11250 X208.754 Y204.229
G1 F2250 X200.295 Y195.77 E109.9256
G0 F11250 X200.578 Y195.77
G1 F2250 X209.037 Y204.229 E110.04497
G0 F11250 X209.229 Y204.138
G1 F2250 X200.861 Y195.77 E110.16305
G0 F11250 X201.144 Y195.77
G1 F2250 X209.229 Y203.855 E110.27714
G0 F11250 X209.229 Y203.572
G1 F2250 X201.427 Y195.77 E110.38723
G0 F11250 X201.709 Y195.77
G1 F2250 X209.229 Y203.289 E110.49334
G0 F11250 X209.229 Y203.006
G1 F2250 X201.992 Y195.77 E110.59545
G0 F11250 X202.275 Y195.77
G1 F2250 X209.229 Y202.723 E110.69357
G0 F11250 X209.229 Y202.441
G1 F2250 X202.558 Y195.77 E110.78771
G0 F11250 X202.841 Y195.77
G1 F2250 X209.229 Y202.158 E110.87785
G0 F11250 X209.229 Y201.875
G1 F2250 X203.124 Y195.77 E110.964
G0 F11250 X203.407 Y195.77
G1 F2250 X209.229 Y201.592 E111.04615
G0 F11250 X209.229 Y201.309
G1 F2250 X203.689 Y195.77 E111.12432
G0 F11250 X203.972 Y195.77
G1 F2250 X209.229 Y201.026 E111.1985
G0 F11250 X209.229 Y200.744
G1 F2250 X204.255 Y195.77 E111.26869
G0 F11250 X204.538 Y195.77
G1 F2250 X209.229 Y200.461 E111.33488
G0 F11250 X209.229 Y200.178
G1 F2250 X204.821 Y195.77 E111.39708
G0 F11250 X205.104 Y195.77
G1 F2250 X209.229 Y199.895 E111.45529
G0 F11250 X209.229 Y199.612
G1 F2250 X205.386 Y195.77 E111.50951
G0 F11250 X205.669 Y195.77
G1 F2250 X209.229 Y199.329 E111.55974
G0 F11250 X209.229 Y199.047
G1 F2250 X205.952 Y195.77 E111.60598
G0 F11250 X206.235 Y195.77
G1 F2250 X209.229 Y198.764 E111.64823
G0 F11250 X209.229 Y198.481
G1 F2250 X206.518 Y195.77 E111.68649
G0 F11250 X206.801 Y195.77
G1 F2250 X209.229 Y198.198 E111.72075
G0 F11250 X209.229 Y197.915
G1 F2250 X207.083 Y195.77 E111.75102
G0 F11250 X207.366 Y195.77
G1 F2250 X209.229 Y197.632 E111.77731
G0 F11250 X209.229 Y197.349
G1 F2250 X207.649 Y195.77 E111.79959
G0 F11250 X207.932 Y195.77
G1 F2250 X209.229 Y197.067 E111.8179
G0 F11250 X209.229 Y196.784
G1 F2250 X208.215 Y195.77 E111.83221
G0 F11250 X208.498 Y195.77
G1 F2250 X209.229 Y196.501 E111.84252
G0 F11250 X209.229 Y196.218
G1 F2250 X208.781 Y195.77 E111.84884
G0 F11250 X209.063 Y195.77
G1 F2250 X209.229 Y195.935 E111.85118
G0 F11250 X209.59 Y195.935
;MESH:NONMESH
G0 F300 X209.59 Y195.935 Z3.84
G0 F11250 X209.5 Y204.5
;TIME_ELAPSED:536.279199
;LAYER:31
;TYPE:WALL-INNER
;MESH:Body1.stl
G1 F1444.2 X190.5 Y204.5 E112.04076
G1 X190.5 Y195.5 E112.13056
G1 X209.5 Y195.5 E112.32015
G1 X209.5 Y204.5 E112.40995
G0 F11250 X209.7 Y204.7
G1 F1444.2 X190.3 Y204.7 E112.60352
G1 X190.3 Y195.3 E112.69732
G1 X209.7 Y195.3 E112.89089
G1 X209.7 Y204.7 E112.98468
G0 F11250 X209.9 Y204.9
;TYPE:WALL-OUTER
G1 F1444.2 X190.1 Y204.9 E113.18225
G1 X190.1 Y195.1 E113.28003
G1 X209.9 Y195.1 E113.4776
G1 X209.9 Y204.9 E113.57538
G0 F11250 X209.458 Y204.416
;TYPE:FILL
G1 F2888.5 X209.296 Y204.459 E113.57706
G0 F11250 X208.416 Y204.458
G1 F2888.5 X209.459 Y200.567 E113.61725
G0 F11250 X209.459 Y200.275
G1 F2888.5 X193.842 Y204.459 E113.77857
G0 F11250 X191.852 Y204.459
G1 F2888.5 X194.242 Y195.538 E113.87073
G0 F11250 X193.722 Y195.539
G1 F2888.5 X202.641 Y204.459 E113.99659
G0 F11250 X204.275 Y204.459
G1 F2888.5 X206.665 Y195.538 E114.08874
G0 F11250 X205.036 Y195.54
G1 F2888.5 X209.459 Y199.962 E114.15115
G0 F11250 X209.459 Y196.134
G1 F2888.5 X190.539 Y201.203 E114.34659
G0 F11250 X190.539 Y203.67
G1 F2888.5 X191.328 Y204.459 E114.35773
G0 F11250 X195.993 Y204.459
G1 F2888.5 X198.383 Y195.538 E114.44988
G0 F11250 X199.379 Y195.539
G1 F2888.5 X208.298 Y204.459 E114.57574
G0 F11250 X200.134 Y204.459
G1 F2888.5 X202.524 Y195.538 E114.6679
G0 F11250 X196.223 Y195.539
G1 F2888.5 X190.539 Y197.062 E114.72661
G0 F11250 X190.539 Y198.013
G1 F2888.5 X196.985 Y204.459 E114.81757
;MESH:NONMESH
G0 F300 X196.985 Y204.459 Z3.96
G0 F11250 X209.5 Y204.5
;TIME_ELAPSED:549.202893
;LAYER:32
;TYPE:WALL-INNER
;MESH:Body1.stl
G1 F1447.2 X190.5 Y204.5 E115.00715
G1 X190.5 Y195.5 E115.09696
G1 X209.5 Y195.5 E115.28654
G1 X209.5 Y204.5 E115.37634
G0 F11250 X209.7 Y204.7
G1 F1447.2 X190.3 Y204.7 E115.56992
G1 X190.3 Y195.3 E115.66371
G1 X209.7 Y195.3 E115.85728
G1 X209.7 Y204.7 E115.95108
G0 F11250 X209.9 Y204.9
;TYPE:WALL-OUTER
G1 F1447.2 X190.1 Y204.9 E116.14864
G1 X190.1 Y195.1 E116.24643
G1 X209.9 Y195.1 E116.44399
G1 X209.9 Y204.9 E116.54178
G0 F11250 X209.73 Y204.73
G0 X208.419 Y204.459
;TYPE:FILL
G1 F2894.4 X199.499 Y195.539 E116.66765
G0 F11250 X198.295 Y195.538
G1 F2894.4 X195.905 Y204.459 E116.7598
G0 F11250 X197.105 Y204.459
G1 F2894.4 X190.539 Y197.893 E116.85245
G0 F11250 X190.54 Y197.15
G1 F2894.4 X196.551 Y195.539 E116.91455
G0 F11250 X194.154 Y195.538
G1 F2894.4 X191.764 Y204.459 E117.0067
G0 F11250 X191.448 Y204.459
G1 F2894.4 X190.539 Y203.55 E117.01953
G0 F11250 X190.54 Y201.291
G1 F2894.4 X209.459 Y196.222 E117.21496
G0 F11250 X206.577 Y195.538
G1 F2894.4 X204.187 Y204.459 E117.30712
G0 F11250 X202.762 Y204.459
G1 F2894.4 X193.842 Y195.539 E117.43299
G0 F11250 X202.436 Y195.538
G1 F2894.4 X200.046 Y204.459 E117.52514
G0 F11250 X194.17 Y204.459
G1 F2894.4 X209.458 Y200.363 E117.68306
G0 F11250 X209.459 Y200.239
G1 F2894.4 X208.328 Y204.459 E117.72666
G0 F11250 X209.459 Y199.842
G1 F2894.4 X205.157 Y195.54 E117.78736
;MESH:NONMESH
G0 F300 X205.157 Y195.54 Z4.08
G0 F11250 X209.5 Y204.5
;TIME_ELAPSED:562.002237
;LAYER:33
;TYPE:WALL-INNER
;MESH:Body1.stl
G1 F1439.9 X190.5 Y204.5 E117.97695
G1 X190.5 Y195.5 E118.06675
G1 X209.5 Y195.5 E118.25633
G1 X209.5 Y204.5 E118.34613
G0 F11250 X209.7 Y204.7
G1 F1439.9 X190.3 Y204.7 E118.53971
G1 X190.3 Y195.3 E118.6335
G1 X209.7 Y195.3 E118.82708
G1 X209.7 Y204.7 E118.92087
G0 F11250 X209.9 Y204.9
;TYPE:WALL-OUTER
G1 F1439.9 X190.1 Y204.9 E119.11843
G1 X190.1 Y195.1 E119.21622
G1 X209.9 Y195.1 E119.41378
G1 X209.9 Y204.9 E119.51157
G0 F11250 X209.73 Y204.73
G0 X208.537 Y204.459
;TYPE:FILL
G1 F2879.7 X199.618 Y195.539 E119.63743
G0 F11250 X198.208 Y195.538
G1 F2879.7 X195.818 Y204.459 E119.72959
G0 F11250 X194.495 Y204.459
G1 F2879.7 X209.458 Y200.45 E119.88415
G0 F11250 X209.459 Y199.914
G1 F2879.7 X208.241 Y204.459 E119.9311
G0 F11250 X204.1 Y204.458
G1 F2879.7 X206.49 Y195.538 E120.02325
G0 F11250 X205.275 Y195.54
G1 F2879.7 X209.459 Y199.723 E120.08228
G0 F11250 X209.458 Y196.309
G1 F2879.7 X190.54 Y201.378 E120.2777
G0 F11250 X190.539 Y203.431
G1 F2879.7 X191.567 Y204.459 E120.29221
G0 F11250 X191.677 Y204.459
G1 F2879.7 X194.067 Y195.538 E120.38436
G0 F11250 X193.961 Y195.539
G1 F2879.7 X202.88 Y204.459 E120.51023
G0 F11250 X199.959 Y204.459
G1 F2879.7 X202.349 Y195.538 E120.60238
G0 F11250 X196.876 Y195.539
G1 F2879.7 X190.54 Y197.237 E120.66783
G0 F11250 X190.539 Y197.774
G1 F2879.7 X197.224 Y204.459 E120.76216
;MESH:NONMESH
G0 F300 X197.224 Y204.459 Z4.2
G0 F11250 X209.5 Y204.5
;TIME_ELAPSED:574.664590
;LAYER:34
;TYPE:WALL-INNER
;MESH:Body1.stl
G1 F2250 X190.5 Y204.5 E120.95175
G1 X190.5 Y195.5 E121.04155
G1 X209.5 Y195.5 E121.23113
G1 X209.5 Y204.5 E121.32093
G0 F11250 X209.7 Y204.7
G1 F2250 X190.3 Y204.7 E121.51451
G1 X190.3 Y195.3 E121.6083
G1 X209.7 Y195.3 E121.80188
G1 X209.7 Y204.7 E121.89567
G0 F11250 X209.9 Y204.9
;TYPE:WALL-OUTER
G1 F2250 X190.1 Y204.9 E122.09324
G1 X190.1 Y195.1 E122.19102
G1 X209.9 Y195.1 E122.38859
G1 X209.9 Y204.9 E122.48637
G0 F11250 X209.31 Y204.31
;TYPE:SKIN
G1 F2250 X190.69 Y204.31 E122.67216
G1 X190.69 Y195.69 E122.75817
G1 X209.31 Y195.69 E122.94396
G1 X209.31 Y204.31 E123.02997
G0 F11250 X209.49 Y204.31
G0 X209.49 Y195.935
G0 X209.229 Y195.935
G1 F2250 X209.063 Y195.77 E123.03231
G0 F11250 X208.781 Y195.77
G1 F2250 X209.229 Y196.218 E123.03863
G0 F11250 X209.229 Y196.501
G1 F2250 X208.498 Y195.77 E123.04895
G0 F11250 X208.215 Y195.77
G1 F2250 X209.229 Y196.784 E123.06325
G0 F11250 X209.229 Y197.067
G1 F2250 X207.932 Y195.77 E123.08156
G0 F11250 X207.649 Y195.77
G1 F2250 X209.229 Y197.349 E123.10385
G0 F11250 X209.229 Y197.632
G1 F2250 X207.366 Y195.77 E123.13013
G0 F11250 X207.083 Y195.77
G1 F2250 X209.229 Y197.915 E123.1604
G0 F11250 X209.229 Y198.198
G1 F2250 X206.801 Y195.77 E123.19466
G0 F11250 X206.518 Y195.77
G1 F2250 X209.229 Y198.481 E123.23292
G0 F11250 X209.229 Y198.764
G1 F2250 X206.235 Y195.77 E123.27517
G0 F11250 X205.952 Y195.77
G1 F2250 X209.229 Y199.047 E123.32141
G0 F11250 X209.229 Y199.329
G1 F2250 X205.669 Y195.77 E123.37164
G0 F11250 X205.386 Y195.77
G1 F2250 X209.229 Y199.612 E123.42586
G0 F11250 X209.229 Y199.895
G1 F2250 X205.104 Y195.77 E123.48407
G0 F11250 X204.821 Y195.77
G1 F2250 X209.229 Y200.178 E123.54627
G0 F11250 X209.229 Y200.461
G1 F2250 X204.538 Y195.77 E123.61247
G0 F11250 X204.255 Y195.77
G1 F2250 X209.229 Y200.744 E123.68265
G0 F11250 X209.229 Y201.026
G1 F2250 X203.972 Y195.77 E123.75683
G0 F11250 X203.689 Y195.77
G1 F2250 X209.229 Y201.309 E123.835
G0 F11250 X209.229 Y201.592
G1 F2250 X203.407 Y195.77 E123.91715
G0 F11250 X203.124 Y195.77
G1 F2250 X209.229 Y201.875 E124.0033
G0 F11250 X209.229 Y202.158
G1 F2250 X202.841 Y195.77 E124.09344
G0 F11250 X202.558 Y195.77
G1 F2250 X209.229 Y202.441 E124.18758
G0 F11250 X209.229 Y202.723
G1 F2250 X202.275 Y195.77 E124.2857
G0 F11250 X201.992 Y195.77
G1 F2250 X209.229 Y203.006 E124.38781
G0 F11250 X209.229 Y203.289
G1 F2250 X201.709 Y195.77 E124.49392
G0 F11250 X201.427 Y195.77
G1 F2250 X209.229 Y203.572 E124.60402
G0 F11250 X209.229 Y203.855
G1 F2250 X201.144 Y195.77 E124.7181
G0 F11250 X200.861 Y195.77
G1 F2250 X209.229 Y204.138 E124.83618
G0 F11250 X209.037 Y204.229
G1 F2250 X200.578 Y195.77 E124.95555
G0 F11250 X200.295 Y195.77
G1 F2250 X208.754 Y204.229 E125.07492
G0 F11250 X208.472 Y204.229
G1 F2250 X200.012 Y195.77 E125.19429
G0 F11250 X199.73 Y195.77
G1 F2250 X208.189 Y204.229 E125.31365
G0 F11250 X207.906 Y204.229
G1 F2250 X199.447 Y195.77 E125.43302
G0 F11250 X199.164 Y195.77
G1 F2250 X207.623 Y204.229 E125.55239
G0 F11250 X207.34 Y204.229
G1 F2250 X198.881 Y195.77 E125.67175
G0 F11250 X198.598 Y195.77
G1 F2250 X207.057 Y204.229 E125.79112
G0 F11250 X206.774 Y204.229
G1 F2250 X198.315 Y195.77 E125.91048
G0 F11250 X198.033 Y195.77
G1 F2250 X206.492 Y204.229 E126.02985
G0 F11250 X206.209 Y204.229
G1 F2250 X197.75 Y195.77 E126.14921
G0 F11250 X197.467 Y195.77
G1 F2250 X205.926 Y204.229 E126.26858
G0 F11250 X205.643 Y204.229
G1 F2250 X197.184 Y195.77 E126.38795
G0 F11250 X196.901 Y195.77
G1 F2250 X205.36 Y204.229 E126.50731
G0 F11250 X205.077 Y204.229
G1 F2250 X196.618 Y195.77 E126.62668
G0 F11250 X196.335 Y195.77
G1 F2250 X204.795 Y204.229 E126.74605
G0 F11250 X204.512 Y204.229
G1 F2250 X196.053 Y195.77 E126.86541
